; generated by PrusaSlicer 2.7.2 on 2025-04-29 at 18:29:03 UTC


;
;
; 

; external perimeters extrusion width = 1.00mm
; perimeters extrusion width = 1.00mm
; infill extrusion width = 0.90mm
; solid infill extrusion width = 0.90mm
; top infill extrusion width = 0.80mm
; first layer extrusion width = 0.90mm

M73 P0 R171
M73 Q0 S173
M201 X1000 Y1000 Z200 E5000 ; sets maximum accelerations, mm/sec^2
M203 X200 Y200 Z12 E120 ; sets maximum feedrates, mm / sec
M204 S1250 T1250 ; sets acceleration (S) and retract acceleration (R), mm/sec^2
M205 X8.00 Y8.00 Z0.40 E4.50 ; sets the jerk limits, mm/sec
M205 S0 T0 ; sets the minimum extruding and travel feed rate, mm/sec

; printing object AttachmentHoles id:6 copy 0
; stop printing object AttachmentHoles id:6 copy 0

;TYPE:Custom
M862.3 P "MK3S" ; printer model check
M862.1 P0.8 ; nozzle diameter check
M115 U3.13.3 ; tell printer latest fw version
G90 ; use absolute coordinates
M83 ; extruder relative mode
M104 S230 ; set extruder temp
M140 S60 ; set bed temp
M190 S60 ; wait for bed temp
M109 S230 ; wait for extruder temp
G28 W ; home all without mesh bed level
G80 X47.9018 Y30.2589 W160.178 H170.178 ; mesh bed levelling

G1 Z0.2 F720
G1 Y-3 F1000 ; go outside print area
G92 E0
G1 X60 E9 F1000 ; intro line
G1 X100 E12.5 F1000 ; intro line

G92 E0
M221 S95
G21 ; set units to millimeters
G90 ; use absolute coordinates
M83 ; use relative distances for extrusion

M900 K0.01 ; Filament gcode LA 1.5
; ; Filament gcode LA 1.0




M107
;LAYER_CHANGE
;Z:0.3
;HEIGHT:0.3
G1 E-.7 F2100
G1 Z.55 F720
G1 X48.715 Y33.466 F10800
G1 Z.3 F720
G1 E.7 F1200
M204 S800
;TYPE:Skirt/Brim
;WIDTH:0.9
G1 X49.835 Y31.904 E.20032
G1 X51.49 Y30.924 E.20046
G1 X52.991 Y30.677 E.15854
G1 X202.991 Y30.677 E15.63346
G1 X204.872 Y31.072 E.20032
G1 X206.435 Y32.193 E.20047
G1 X207.414 Y33.847 E.20032
G1 X207.662 Y35.348 E.15856
G1 X207.662 Y195.348 E16.67569
G1 X207.266 Y197.23 E.20044
G1 X206.146 Y198.792 E.20032
G1 X204.492 Y199.772 E.20037
G1 X202.991 Y200.019 E.15854
G1 X52.991 Y200.019 E15.63346
G1 X51.109 Y199.624 E.20042
M73 P0 R170
G1 X49.546 Y198.503 E.20047
G1 X48.567 Y196.849 E.20032
G1 X48.32 Y195.348 E.15854
G1 X48.32 Y35.348 E16.67569
G1 X48.691 Y33.584 E.18787
M204 S1000
G1 X48.691 Y33.584 F10800
G1 X49.521 Y33.777
M204 S800
G1 F1200
G1 X49.55 Y33.653 E.01327
G1 X50.653 Y32.307 E.18137
G1 X52.991 Y31.512 E.25738
G1 X202.991 Y31.512 E15.63346
G1 X204.686 Y31.907 E.18139
M73 Q0 S172
G1 X206.032 Y33.01 E.18137
G1 X206.826 Y35.348 E.25734
G1 X206.826 Y195.348 E16.67569
G1 X206.432 Y197.043 E.18137
G1 X205.329 Y198.389 E.18137
G1 X202.991 Y199.184 E.25738
G1 X52.991 Y199.184 E15.63346
G1 X51.296 Y198.789 E.18139
G1 X49.95 Y197.686 E.18137
G1 X49.155 Y195.348 E.25738
G1 X49.155 Y35.348 E16.67569
G1 X49.494 Y33.894 E.1556
M204 S1000
; printing object AttachmentHoles id:6 copy 0
;WIPE_START
G1 F8640
G1 X49.521 Y33.777 E-.02773
G1 X49.55 Y33.653 E-.0294
G1 X50.653 Y32.307 E-.40182
G1 X51.641 Y31.971 E-.24105
;WIPE_END
G1 Z.55 F720
G1 X201.505 Y36.834 F10800
G1 Z.3 F720
G1 E.7 F1200
M204 S800
;TYPE:Perimeter
;WIDTH:0.899999
G1 X201.505 Y39.432 E.27077
G1 X201.505 Y193.862 E16.09516
G1 X54.476 Y193.862 E15.3238
G1 X54.476 Y36.834 E16.36593
G1 X201.385 Y36.834 E15.3113
M73 P0 R169
M204 S1000
;WIPE_START
G1 F8640
M73 P1 R169
M73 Q0 S171
G1 X201.505 Y36.834 E-.02771
G1 X201.505 Y39.432 E-.59989
G1 X201.505 Y39.746 E-.0724
;WIPE_END
G1 Z.55 F720
G1 X202.341 Y35.998 F10800
M73 Q1 S171
G1 Z.3 F720
G1 E.7 F1200
M204 S800
;TYPE:External perimeter
G1 X202.341 Y39.432 E.3579
G1 X202.341 Y194.698 E16.18229
G1 X53.641 Y194.698 E15.49796
G1 X53.641 Y35.998 E16.54019
G1 X202.221 Y35.998 E15.48545
M204 S1000
;WIPE_START
G1 F8640
G1 X202.341 Y35.998 E-.02771
G1 X202.341 Y38.909 E-.67229
;WIPE_END
G1 Z.55 F720
G1 X194.053 Y41.38 F10800
G1 Z.3 F720
G1 E.7 F1200
M204 S800
;TYPE:Perimeter
G1 X194.737 Y41.185 E.07413
G1 X195.576 Y41.117 E.08773
G1 X196.588 Y41.264 E.10658
G1 X197.405 Y41.574 E.09107
G1 X198.113 Y42.027 E.0876
G1 X198.72 Y42.613 E.08793
G1 X199.198 Y43.307 E.08783
G1 X199.529 Y44.083 E.08793
G1 X199.699 Y44.907 E.08769
G1 X199.703 Y45.75 E.08786
G1 X199.54 Y46.577 E.08785
G1 X199.216 Y47.355 E.08784
G1 X198.745 Y48.053 E.08776
G1 X198.143 Y48.645 E.088
G1 X197.439 Y49.104 E.08759
G1 X196.654 Y49.416 E.08804
G1 X195.827 Y49.566 E.0876
G1 X194.982 Y49.548 E.08809
G1 X194.315 Y49.393 E.07137
G1 X193.805 Y49.233 E.05571
G1 X193.211 Y48.912 E.07037
G1 X192.55 Y48.39 E.08778
G1 X192.006 Y47.748 E.0877
G1 X191.599 Y47.01 E.08784
G1 X191.347 Y46.206 E.08781
G1 X191.26 Y45.367 E.08791
G1 X191.34 Y44.529 E.08774
G1 X191.584 Y43.722 E.08787
G1 X191.984 Y42.981 E.08776
G1 X192.522 Y42.333 E.08778
G1 X193.178 Y41.804 E.08783
G1 X193.928 Y41.416 E.08801
G1 X193.937 Y41.413 E.00099
M204 S1000
G1 X193.937 Y41.413 F10800
G1 X194.155 Y42.236
M204 S800
;TYPE:External perimeter
G1 F1200
G1 X194.29 Y42.169 E.01571
G1 X194.943 Y41.994 E.07046
G1 X195.618 Y41.952 E.07049
G1 X196.442 Y42.086 E.08701
G1 X197.08 Y42.344 E.07173
G1 X197.643 Y42.718 E.07044
G1 X198.122 Y43.197 E.0706
G1 X198.496 Y43.76 E.07044
G1 X198.751 Y44.388 E.07064
G1 X198.876 Y45.052 E.07042
G1 X198.868 Y45.729 E.07056
G1 X198.725 Y46.391 E.07059
G1 X198.454 Y47.011 E.07052
G1 X198.066 Y47.566 E.07058
G1 X197.575 Y48.032 E.07055
G1 X197.003 Y48.392 E.07044
G1 X196.369 Y48.631 E.07062
G1 X195.702 Y48.74 E.07044
G1 X195.024 Y48.714 E.07072
G1 X194.22 Y48.498 E.08677
G1 X193.611 Y48.179 E.07165
G1 X193.087 Y47.75 E.07058
G1 X192.659 Y47.227 E.07043
G1 X192.343 Y46.629 E.07049
G1 X192.152 Y45.98 E.07051
G1 X192.093 Y45.304 E.07072
G1 X192.169 Y44.632 E.07048
G1 X192.376 Y43.988 E.0705
G1 X192.708 Y43.399 E.07047
G1 X193.149 Y42.886 E.07051
G1 X193.683 Y42.47 E.07055
G1 X194.047 Y42.289 E.04237
M204 S1000
;WIPE_START
G1 F8640
G1 X194.155 Y42.236 E-.02778
G1 X194.29 Y42.169 E-.0348
G1 X194.943 Y41.994 E-.1561
G1 X195.618 Y41.952 E-.15616
G1 X196.442 Y42.086 E-.19276
G1 X196.973 Y42.301 E-.1324
;WIPE_END
G1 Z.55 F720
G1 X182.703 Y60.383 F10800
G1 Z.3 F720
G1 E.7 F1200
M204 S800
;TYPE:Perimeter
G1 X183.139 Y59.95 E.06404
G1 X183.762 Y59.541 E.07767
G1 X184.45 Y59.265 E.07726
G1 X185.181 Y59.13 E.07748
G1 X185.923 Y59.141 E.07734
G1 X186.651 Y59.301 E.07769
G1 X186.939 Y59.414 E.03224
G1 X187.589 Y59.768 E.07714
G1 X187.96 Y60.059 E.04914
G1 X188.335 Y60.428 E.05483
G1 X188.807 Y61.147 E.08964
G1 X188.941 Y61.427 E.03235
G1 X189.133 Y62.015 E.06447
G1 X189.216 Y62.63 E.06468
G1 X189.185 Y63.373 E.07751
G1 X189.059 Y63.948 E.06135
G1 X188.783 Y64.605 E.07427
G1 X188.37 Y65.222 E.07738
G1 X187.842 Y65.746 E.07753
G1 X187.22 Y66.155 E.07759
G1 X186.937 Y66.282 E.03233
G1 X186.231 Y66.5 E.07701
G1 X185.861 Y66.556 E.039
G1 X185.121 Y66.556 E.07713
G1 X184.81 Y66.517 E.03267
G1 X184.269 Y66.377 E.05824
G1 X183.394 Y65.929 E.10245
G1 X183.139 Y65.746 E.03271
G1 X182.755 Y65.388 E.05472
G1 X182.577 Y65.171 E.02925
G1 X182.175 Y64.549 E.07719
G1 X182.04 Y64.269 E.0324
G1 X181.848 Y63.678 E.06476
G1 X181.765 Y63.065 E.06447
G1 X181.796 Y62.323 E.0774
G1 X181.923 Y61.748 E.06137
G1 X182.198 Y61.091 E.07423
G1 X182.612 Y60.474 E.07744
G1 X182.618 Y60.468 E.00088
M204 S1000
G1 X182.618 Y60.468 F10800
G1 X183.425 Y60.833
M204 S800
;TYPE:External perimeter
G1 F1200
G1 X183.708 Y60.562 E.04084
G1 X184.197 Y60.255 E.06018
G1 X184.735 Y60.05 E.06
G1 X185.306 Y59.956 E.06031
G1 X185.882 Y59.976 E.06007
G1 X186.444 Y60.111 E.06024
G1 X186.97 Y60.383 E.06172
G1 X187.274 Y60.562 E.03677
G1 X187.652 Y60.914 E.05383
G1 X188.105 Y61.601 E.08577
G1 X188.307 Y62.162 E.06214
G1 X188.387 Y62.734 E.0602
G1 X188.352 Y63.31 E.06014
G1 X188.225 Y63.811 E.05387
G1 X188.002 Y64.298 E.05582
G1 X187.691 Y64.735 E.0559
G1 X187.274 Y65.134 E.06015
G1 X186.785 Y65.441 E.06018
G1 X185.984 Y65.702 E.0878
G1 X185.12 Y65.721 E.09007
G1 X184.538 Y65.585 E.06229
G1 X183.793 Y65.194 E.08769
G1 X183.338 Y64.79 E.06342
G1 X182.877 Y64.095 E.08692
G1 X182.675 Y63.534 E.06214
G1 X182.595 Y62.962 E.0602
G1 X182.629 Y62.386 E.06014
G1 X182.757 Y61.885 E.05389
G1 X182.969 Y61.417 E.05355
G1 X183.29 Y60.961 E.05812
G1 X183.338 Y60.916 E.00686
M204 S1000
;WIPE_START
G1 F8640
G1 X183.425 Y60.833 E-.02776
G1 X183.708 Y60.562 E-.09047
G1 X184.197 Y60.255 E-.13332
G1 X184.735 Y60.05 E-.13294
G1 X185.306 Y59.956 E-.13362
G1 X185.882 Y59.976 E-.13308
G1 X186.087 Y60.025 E-.04881
;WIPE_END
G1 Z.55 F720
G1 X78.247 Y59.88 F10800
G1 Z.3 F720
G1 E.7 F1200
M204 S800
;TYPE:Perimeter
G1 X78.762 Y59.541 E.06426
G1 X79.45 Y59.265 E.07726
G1 X80.181 Y59.13 E.07748
G1 X80.923 Y59.141 E.07734
G1 X81.651 Y59.301 E.07769
G1 X81.939 Y59.414 E.03224
G1 X82.588 Y59.767 E.077
G1 X82.842 Y59.95 E.03263
G1 X83.242 Y60.322 E.05693
G1 X83.807 Y61.147 E.10422
G1 X83.941 Y61.427 E.03235
G1 X84.128 Y61.994 E.06223
G1 X84.216 Y62.63 E.06692
G1 X84.19 Y63.315 E.07144
G1 X84.059 Y63.948 E.06737
G1 X83.783 Y64.605 E.07427
G1 X83.37 Y65.222 E.07738
G1 X82.842 Y65.746 E.07753
G1 X82.22 Y66.155 E.07759
G1 X81.699 Y66.356 E.0582
G1 X81.105 Y66.532 E.06457
G1 X80.121 Y66.556 E.10259
G1 X79.81 Y66.517 E.03267
G1 X79.215 Y66.359 E.06416
G1 X78.394 Y65.929 E.09659
G1 X78.093 Y65.703 E.03923
G1 X77.723 Y65.356 E.05287
G1 X77.175 Y64.549 E.10167
G1 X77.04 Y64.269 E.0324
G1 X76.859 Y63.721 E.06015
G1 X76.772 Y63.117 E.0636
G1 X76.759 Y62.816 E.0314
G1 X76.797 Y62.315 E.05237
G1 X76.903 Y61.825 E.05225
G1 X77.198 Y61.091 E.08245
G1 X77.612 Y60.474 E.07744
G1 X78.139 Y59.95 E.07746
G1 X78.146 Y59.945 E.0009
M204 S1000
G1 X78.146 Y59.945 F10800
G1 X78.786 Y60.513
M204 S800
;TYPE:External perimeter
G1 F1200
G1 X79.197 Y60.255 E.05058
G1 X79.735 Y60.05 E.06
G1 X80.306 Y59.956 E.06031
G1 X80.882 Y59.976 E.06007
G1 X81.444 Y60.111 E.06024
G1 X82.189 Y60.502 E.08769
G1 X82.636 Y60.899 E.06231
G1 X83.105 Y61.601 E.08799
G1 X83.307 Y62.162 E.06214
G1 X83.387 Y62.734 E.0602
G1 X83.357 Y63.252 E.05408
G1 X83.249 Y63.742 E.0523
G1 X83.022 Y64.261 E.05904
G1 X82.691 Y64.735 E.06025
G1 X82.274 Y65.134 E.06015
G1 X81.785 Y65.441 E.06018
G1 X81.149 Y65.651 E.06981
G1 X80.861 Y65.72 E.03087
G1 X80.118 Y65.721 E.07744
G1 X79.538 Y65.585 E.06209
G1 X78.793 Y65.194 E.08769
G1 X78.345 Y64.797 E.06239
G1 X77.877 Y64.095 E.08793
G1 X77.675 Y63.534 E.06214
G1 X77.601 Y63.013 E.05485
G1 X77.629 Y62.386 E.06541
G1 X77.757 Y61.885 E.05389
G1 X77.964 Y61.426 E.05248
G1 X78.29 Y60.961 E.05919
G1 X78.688 Y60.581 E.05735
M204 S1000
;WIPE_START
G1 F8640
G1 X78.786 Y60.513 E-.02754
G1 X79.197 Y60.255 E-.11205
G1 X79.735 Y60.05 E-.13294
G1 X80.306 Y59.956 E-.13362
G1 X80.882 Y59.976 E-.13308
G1 X81.444 Y60.111 E-.13346
G1 X81.549 Y60.166 E-.02731
;WIPE_END
G1 Z.55 F720
G1 X62.514 Y46.644 F10800
G1 Z.3 F720
G1 E.7 F1200
M204 S800
;TYPE:Perimeter
G1 X63.113 Y47.027 E.0741
G1 X63.72 Y47.613 E.08793
G1 X64.198 Y48.307 E.08783
G1 X64.528 Y49.082 E.08779
G1 X64.699 Y49.907 E.08781
G1 X64.703 Y50.75 E.08786
G1 X64.54 Y51.577 E.08785
G1 X64.216 Y52.355 E.08784
G1 X63.745 Y53.053 E.08776
G1 X63.202 Y53.59 E.07959
G1 X62.888 Y53.83 E.04119
G1 X62.439 Y54.104 E.05482
G1 X61.861 Y54.341 E.06511
G1 X61.414 Y54.478 E.04873
G1 X60.827 Y54.566 E.06186
G1 X59.982 Y54.548 E.08809
G1 X58.993 Y54.303 E.10619
G1 X58.211 Y53.912 E.09112
G1 X57.55 Y53.39 E.08778
G1 X57.006 Y52.748 E.0877
G1 X56.599 Y52.01 E.08784
G1 X56.347 Y51.206 E.08781
G1 X56.26 Y50.367 E.08791
G1 X56.34 Y49.529 E.08774
G1 X56.584 Y48.722 E.08787
G1 X56.984 Y47.981 E.08776
G1 X57.522 Y47.333 E.08778
G1 X58.178 Y46.804 E.08783
G1 X58.928 Y46.416 E.08801
G1 X59.737 Y46.185 E.08769
G1 X60.576 Y46.117 E.08773
G1 X60.858 Y46.135 E.02945
G1 X61.588 Y46.264 E.07726
G1 X62.405 Y46.574 E.09107
G1 X62.412 Y46.579 E.0009
M204 S1000
G1 X62.412 Y46.579 F10800
G1 X61.964 Y47.297
M204 S800
;TYPE:External perimeter
G1 F1200
G1 X62.08 Y47.344 E.01304
G1 X62.643 Y47.718 E.07044
G1 X63.122 Y48.197 E.0706
G1 X63.496 Y48.76 E.07044
G1 X63.751 Y49.387 E.07055
G1 X63.876 Y50.052 E.07052
G1 X63.868 Y50.729 E.07056
G1 X63.725 Y51.391 E.07059
G1 X63.454 Y52.011 E.07052
G1 X63.066 Y52.566 E.07058
G1 X62.634 Y52.977 E.06215
G1 X62.03 Y53.375 E.07539
G1 X61.369 Y53.631 E.07388
G1 X60.702 Y53.74 E.07044
G1 X60.024 Y53.714 E.07072
G1 X59.22 Y53.498 E.08677
G1 X58.611 Y53.179 E.07165
G1 X58.087 Y52.75 E.07058
G1 X57.659 Y52.227 E.07043
G1 X57.343 Y51.629 E.07049
G1 X57.152 Y50.98 E.07051
G1 X57.093 Y50.304 E.07072
G1 X57.169 Y49.632 E.07048
G1 X57.376 Y48.988 E.0705
G1 X57.708 Y48.399 E.07047
G1 X58.149 Y47.886 E.07051
G1 X58.683 Y47.47 E.07055
G1 X59.29 Y47.169 E.07061
G1 X59.943 Y46.994 E.07046
G1 X60.618 Y46.952 E.07049
G1 X61.442 Y47.086 E.08701
G1 X61.853 Y47.253 E.04624
M204 S1000
;WIPE_START
G1 F8640
G1 X61.964 Y47.297 E-.02757
G1 X62.08 Y47.344 E-.0289
G1 X62.643 Y47.718 E-.15607
G1 X63.122 Y48.197 E-.15642
G1 X63.496 Y48.76 E-.15607
G1 X63.751 Y49.387 E-.15629
G1 X63.766 Y49.467 E-.01868
;WIPE_END
G1 Z.55 F720
G1 X133.003 Y53.864 F10800
G1 Z.3 F720
G1 E.7 F1200
M204 S800
;TYPE:Perimeter
G1 X133.045 Y53.863 E.00438
G1 X136.109 Y53.943 E.31945
G1 X139.139 Y54.171 E.31669
G1 X142.208 Y54.558 E.32239
G1 X145.199 Y55.087 E.31657
G1 X148.188 Y55.77 E.31955
G1 X151.138 Y56.602 E.31945
G1 X154.07 Y57.589 E.32243
G1 X156.897 Y58.7 E.31657
G1 X159.691 Y59.963 E.31957
G1 X162.419 Y61.363 E.31958
G1 X165.02 Y62.864 E.31299
G1 X167.596 Y64.526 E.31951
G1 X170.086 Y66.313 E.31943
G1 X172.49 Y68.228 E.32033
G1 X174.804 Y70.27 E.32165
G1 X176.98 Y72.39 E.31663
G1 X179.066 Y74.636 E.31947
G1 X181.038 Y76.983 E.31949
M73 P1 R168
G1 X182.891 Y79.425 E.31949
G1 X184.626 Y81.968 E.32085
G1 X186.255 Y84.634 E.32562
G1 X187.719 Y87.325 E.31928
G1 X189.048 Y90.089 E.31964
G1 X190.237 Y92.914 E.31945
G1 X191.284 Y95.796 E.31958
G1 X192.187 Y98.726 E.31955
G1 X192.942 Y101.697 E.31949
G1 X193.547 Y104.702 E.31947
G1 X194.003 Y107.734 E.31956
G1 X194.307 Y110.784 E.31946
G1 X194.458 Y113.846 E.31952
G1 X194.456 Y116.912 E.31955
G1 X194.302 Y119.974 E.31953
G1 X193.995 Y123.024 E.31949
G1 X193.537 Y126.056 E.31959
G1 X192.928 Y129.06 E.31945
G1 X192.17 Y132.031 E.31957
G1 X191.264 Y134.96 E.31954
G1 X190.214 Y137.84 E.31949
G1 X189.022 Y140.665 E.31957
G1 X187.691 Y143.426 E.31945
G1 X186.224 Y146.116 E.31934
G1 X184.626 Y148.728 E.31914
G1 X182.928 Y151.219 E.3142
G1 X181.074 Y153.669 E.32022
G1 X179.108 Y156.013 E.31885
G1 X177.024 Y158.261 E.31948
G1 X174.831 Y160.402 E.31942
G1 X172.533 Y162.431 E.3195
G1 X170.137 Y164.344 E.31955
G1 X167.649 Y166.134 E.31944
G1 X165.075 Y167.799 E.3195
G1 X162.421 Y169.332 E.31944
G1 X159.694 Y170.732 E.31948
G1 X156.9 Y171.994 E.31953
G1 X154.047 Y173.115 E.31948
G1 X151.142 Y174.093 E.31947
G1 X148.192 Y174.925 E.31945
G1 X145.203 Y175.608 E.31955
G1 X142.184 Y176.142 E.31953
G1 X139.143 Y176.525 E.31945
G1 X136.087 Y176.755 E.31941
G1 X133.022 Y176.833 E.31955
G1 X129.957 Y176.758 E.31954
G1 X126.9 Y176.531 E.31949
G1 X123.858 Y176.151 E.31951
G1 X120.839 Y175.62 E.31948
G1 X117.85 Y174.94 E.31948
G1 X114.898 Y174.111 E.31957
G1 X111.991 Y173.136 E.31956
G1 X109.137 Y172.018 E.31946
G1 X106.342 Y170.758 E.31954
G1 X103.613 Y169.361 E.31953
G1 X100.958 Y167.83 E.31942
G1 X98.381 Y166.168 E.3196
G1 X95.891 Y164.379 E.31955
G1 X93.488 Y162.465 E.32018
G1 X92.814 Y161.871 E.09363
G1 X91.194 Y160.442 E.22514
G1 X88.998 Y158.302 E.31958
G1 X86.912 Y156.056 E.31947
G1 X84.94 Y153.709 E.31949
G1 X83.088 Y151.266 E.31951
G1 X81.359 Y148.734 E.31955
G1 X79.759 Y146.119 E.31951
G1 X78.263 Y143.372 E.326
G1 X76.934 Y140.609 E.31955
G1 X75.745 Y137.784 E.31945
G1 X74.698 Y134.902 E.31958
G1 X73.796 Y131.972 E.31952
G1 X73.041 Y129.001 E.31949
G1 X72.435 Y125.996 E.3195
G1 X71.979 Y122.964 E.31956
G1 X71.675 Y119.914 E.31946
G1 X71.524 Y116.825 E.32233
G1 X71.525 Y113.787 E.31663
G1 X71.68 Y110.725 E.31954
G1 X71.986 Y107.674 E.31958
G1 X72.445 Y104.643 E.3195
G1 X73.053 Y101.639 E.31943
G1 X73.811 Y98.669 E.31946
G1 X74.716 Y95.739 E.31961
G1 X75.766 Y92.859 E.31949
G1 X76.958 Y90.035 E.31947
M73 Q1 S170
G1 X78.261 Y87.328 E.31311
G1 X79.726 Y84.635 E.31952
G1 X81.323 Y82.018 E.31953
G1 X83.048 Y79.484 E.31949
G1 X84.898 Y77.04 E.31947
