; generated by PrusaSlicer 2.7.2 on 2025-04-29 at 18:28:40 UTC


;
;
; 

; external perimeters extrusion width = 1.00mm
; perimeters extrusion width = 1.00mm
; infill extrusion width = 0.90mm
; solid infill extrusion width = 0.90mm
; top infill extrusion width = 0.80mm
; first layer extrusion width = 0.90mm

M73 P0 R270
M73 Q0 S271
M201 X1000 Y1000 Z200 E5000 ; sets maximum accelerations, mm/sec^2
M203 X200 Y200 Z12 E120 ; sets maximum feedrates, mm / sec
M204 S1250 T1250 ; sets acceleration (S) and retract acceleration (R), mm/sec^2
M205 X8.00 Y8.00 Z0.40 E4.50 ; sets the jerk limits, mm/sec
M205 S0 T0 ; sets the minimum extruding and travel feed rate, mm/sec

; printing object Slice003.0 id:3 copy 0
; stop printing object Slice003.0 id:3 copy 0

;TYPE:Custom
M862.3 P "MK3S" ; printer model check
M862.1 P0.8 ; nozzle diameter check
M115 U3.13.3 ; tell printer latest fw version
G90 ; use absolute coordinates
M83 ; extruder relative mode
M104 S230 ; set extruder temp
M140 S60 ; set bed temp
M190 S60 ; wait for bed temp
M109 S230 ; wait for extruder temp
G28 W ; home all without mesh bed level
G80 X5.91095 Y39.954 W238.178 H130.092 ; mesh bed levelling

G1 Z0.2 F720
G1 Y-3 F1000 ; go outside print area
G92 E0
G1 X60 E9 F1000 ; intro line
G1 X100 E12.5 F1000 ; intro line

G92 E0
M221 S95
G21 ; set units to millimeters
G90 ; use absolute coordinates
M83 ; use relative distances for extrusion

M900 K0.01 ; Filament gcode LA 1.5
; ; Filament gcode LA 1.0




M107
;LAYER_CHANGE
;Z:0.3
;HEIGHT:0.3
G1 E-.7 F2100
G1 Z.55 F720
G1 X9.499 Y40.619 F10800
G1 Z.3 F720
G1 E.7 F1200
M204 S800
;TYPE:Skirt/Brim
;WIDTH:0.9
G1 X11 Y40.372 E.15854
G1 X239 Y40.372 E23.76286
G1 X240.882 Y40.768 E.20044
G1 X242.444 Y41.888 E.20032
G1 X243.424 Y43.542 E.20037
G1 X243.671 Y45.043 E.15854
G1 X243.671 Y164.957 E12.4978
G1 X243.276 Y166.839 E.20042
G1 X242.155 Y168.401 E.20038
G1 X240.501 Y169.381 E.20037
G1 X239 Y169.628 E.15854
G1 X11 Y169.628 E23.76286
G1 X9.118 Y169.232 E.20044
M73 P0 R269
G1 X7.556 Y168.112 E.20032
G1 X6.576 Y166.458 E.20037
G1 X6.329 Y164.957 E.15854
G1 X6.329 Y45.043 E12.4978
G1 X6.724 Y43.161 E.20042
M73 Q0 S270
G1 X7.845 Y41.599 E.20038
G1 X9.396 Y40.681 E.18784
M204 S1000
;WIPE_START
G1 F8640
G1 X9.499 Y40.619 E-.02776
G1 X11 Y40.372 E-.35125
G1 X12.39 Y40.372 E-.32099
;WIPE_END
G1 Z.55 F720
G1 X9.723 Y41.642 F10800
G1 Z.3 F720
G1 E.7 F1200
M204 S800
G1 X11 Y41.207 E.1406
G1 X239 Y41.207 E23.76286
G1 X240.695 Y41.602 E.18139
G1 X242.041 Y42.705 E.18137
G1 X242.836 Y45.043 E.25738
G1 X242.836 Y164.957 E12.4978
G1 X242.441 Y166.652 E.18139
G1 X241.338 Y167.998 E.18137
G1 X239 Y168.793 E.25738
G1 X11 Y168.793 E23.76286
G1 X9.305 Y168.398 E.18139
G1 X7.959 Y167.295 E.18137
G1 X7.164 Y164.957 E.25738
G1 X7.164 Y45.043 E12.4978
G1 X7.559 Y43.348 E.18139
G1 X8.662 Y42.002 E.18137
G1 X9.609 Y41.68 E.10425
M204 S1000
; printing object Slice003.0 id:3 copy 0
;WIPE_START
G1 F8640
G1 X9.723 Y41.642 E-.02775
G1 X11 Y41.207 E-.3115
G1 X12.562 Y41.207 E-.36075
;WIPE_END
G1 Z.55 F720
G1 X237.514 Y163.471 F10800
G1 Z.3 F720
G1 E.7 F1200
M204 S800
;TYPE:Perimeter
;WIDTH:0.899999
G1 X12.486 Y163.471 E23.45309
G1 X12.486 Y46.529 E12.18805
M73 P0 R268
G1 X237.514 Y46.529 E23.45309
M73 Q0 S269
G1 X237.514 Y105 E6.09402
G1 X237.514 Y163.351 E6.08152
M204 S1000
;WIPE_START
G1 F8640
G1 X237.514 Y163.471 E-.02771
G1 X234.602 Y163.471 E-.67229
;WIPE_END
G1 Z.55 F720
G1 X238.35 Y164.307 F10800
G1 Z.3 F720
G1 E.7 F1200
M204 S800
;TYPE:External perimeter
G1 X11.65 Y164.307 E23.62735
G1 X11.65 Y45.693 E12.36231
G1 X238.35 Y45.693 E23.62735
G1 X238.35 Y105 E6.18115
G1 X238.35 Y164.187 E6.16865
M73 P0 R267
M204 S1000
;WIPE_START
G1 F8640
G1 X238.35 Y164.307 E-.02771
G1 X235.438 Y164.307 E-.67229
;WIPE_END
G1 Z.55 F720
G1 X237.18 Y48.554 F10800
G1 Z.3 F720
G1 E.7 F1200
M204 S800
;TYPE:Solid infill
;WIDTH:0.901127
G1 X235.865 Y47.239 E.19408
G1 X234.681 Y47.239 E.12357
G1 X236.804 Y49.362 E.31334
G1 X236.804 Y50.545 E.12346
G1 X233.498 Y47.239 E.48794
G1 X232.315 Y47.239 E.12346
G1 X236.804 Y51.728 E.66254
G1 X236.804 Y52.912 E.12357
G1 X231.131 Y47.239 E.83729
G1 X229.948 Y47.239 E.12346
G1 X236.804 Y54.095 E1.01189
G1 X236.804 Y55.278 E.12346
G1 X228.765 Y47.239 E1.1865
G1 X227.581 Y47.239 E.12357
G1 X236.804 Y56.462 E1.36124
G1 X236.804 Y57.645 E.12346
G1 X226.398 Y47.239 E1.53585
G1 X225.215 Y47.239 E.12346
G1 X236.804 Y58.828 E1.71045
G1 X236.804 Y60.012 E.12357
G1 X224.031 Y47.239 E1.8852
G1 X222.848 Y47.239 E.12346
M73 Q0 S268
G1 X236.804 Y61.195 E2.0598
G1 X236.804 Y62.378 E.12346
G1 X221.665 Y47.239 E2.2344
G1 X220.481 Y47.239 E.12357
G1 X236.804 Y63.562 E2.40915
G1 X236.804 Y64.745 E.12346
G1 X219.298 Y47.239 E2.58375
G1 X218.115 Y47.239 E.12346
M73 P1 R267
M73 Q1 S268
G1 X236.804 Y65.928 E2.75835
G1 X236.804 Y67.112 E.12357
G1 X216.931 Y47.239 E2.9331
G1 X215.748 Y47.239 E.12346
G1 X236.804 Y68.295 E3.10771
G1 X236.804 Y69.478 E.12346
G1 X214.565 Y47.239 E3.28231
G1 X213.381 Y47.239 E.12357
G1 X236.804 Y70.662 E3.45706
G1 X236.804 Y71.845 E.12346
G1 X212.198 Y47.239 E3.63166
G1 X211.015 Y47.239 E.12346
G1 X236.804 Y73.028 E3.80626
G1 X236.804 Y74.212 E.12357
G1 X209.831 Y47.239 E3.98101
G1 X208.648 Y47.239 E.12346
G1 X236.804 Y75.395 E4.15561
G1 X236.804 Y76.579 E.12357
G1 X207.465 Y47.239 E4.33029
G1 X206.281 Y47.239 E.12357
G1 X236.804 Y77.762 E4.50496
G1 X236.804 Y78.945 E.12346
G1 X205.098 Y47.239 E4.67956
G1 X203.915 Y47.239 E.12346
G1 X236.804 Y80.129 E4.85424
G1 X236.804 Y81.312 E.12346
G1 X202.731 Y47.239 E5.02891
G1 X201.548 Y47.239 E.12346
G1 X236.804 Y82.495 E5.20352
G1 X236.804 Y83.679 E.12357
G1 X200.365 Y47.239 E5.37819
G1 X199.181 Y47.239 E.12357
G1 X236.804 Y84.862 E5.55287
G1 X236.804 Y86.045 E.12346
G1 X197.998 Y47.239 E5.72747
G1 X196.815 Y47.239 E.12346
G1 X236.804 Y87.229 E5.90215
G1 X236.804 Y88.412 E.12346
G1 X195.631 Y47.239 E6.07682
G1 X194.448 Y47.239 E.12346
G1 X236.804 Y89.595 E6.25142
G1 X236.804 Y90.779 E.12357
M73 P1 R266
G1 X193.264 Y47.239 E6.42617
G1 X192.081 Y47.239 E.12346
G1 X236.804 Y91.962 E6.60077
G1 X236.804 Y93.145 E.12346
G1 X190.898 Y47.239 E6.77538
G1 X189.714 Y47.239 E.12357
M73 Q1 S267
G1 X236.804 Y94.329 E6.95012
G1 X236.804 Y95.512 E.12346
G1 X188.531 Y47.239 E7.12473
G1 X187.348 Y47.239 E.12346
G1 X236.804 Y96.695 E7.29933
G1 X236.804 Y97.879 E.12357
G1 X186.164 Y47.239 E7.47408
G1 X184.981 Y47.239 E.12346
G1 X236.804 Y99.062 E7.64868
G1 X236.804 Y100.245 E.12346
G1 X183.798 Y47.239 E7.82328
G1 X182.614 Y47.239 E.12357
G1 X236.804 Y101.429 E7.99803
G1 X236.804 Y102.612 E.12346
G1 X181.431 Y47.239 E8.17263
G1 X180.248 Y47.239 E.12346
G1 X236.804 Y103.795 E8.34723
G1 X236.804 Y104.979 E.12357
G1 X179.064 Y47.239 E8.52198
G1 X177.881 Y47.239 E.12346
G1 X236.804 Y106.162 E8.69659
G1 X236.804 Y107.345 E.12346
G1 X176.698 Y47.239 E8.87119
G1 X175.514 Y47.239 E.12357
G1 X236.804 Y108.529 E9.04594
G1 X236.804 Y109.712 E.12346
M73 P1 R265
G1 X174.331 Y47.239 E9.22054
G1 X173.148 Y47.239 E.12346
G1 X236.804 Y110.895 E9.39514
G1 X236.804 Y112.079 E.12357
M73 Q1 S266
G1 X171.964 Y47.239 E9.56989
G1 X170.781 Y47.239 E.12346
G1 X236.804 Y113.262 E9.74449
G1 X236.804 Y114.445 E.12346
G1 X169.598 Y47.239 E9.91909
G1 X168.414 Y47.239 E.12357
G1 X236.804 Y115.629 E10.09384
G1 X236.804 Y116.812 E.12346
G1 X167.231 Y47.239 E10.26844
G1 X166.048 Y47.239 E.12346
G1 X236.804 Y117.995 E10.44305
G1 X236.804 Y119.179 E.12357
G1 X164.864 Y47.239 E10.6178
G1 X163.681 Y47.239 E.12346
G1 X236.804 Y120.362 E10.7924
G1 X236.804 Y121.545 E.12346
G1 X162.498 Y47.239 E10.967
G1 X161.314 Y47.239 E.12357
G1 X236.804 Y122.729 E11.14175
G1 X236.804 Y123.912 E.12346
M73 P2 R264
M73 Q2 S266
G1 X160.131 Y47.239 E11.31635
G1 X158.948 Y47.239 E.12346
G1 X236.804 Y125.095 E11.49095
G1 X236.804 Y126.279 E.12357
M73 Q2 S265
G1 X157.764 Y47.239 E11.6657
G1 X156.581 Y47.239 E.12346
G1 X236.804 Y127.462 E11.8403
G1 X236.804 Y128.645 E.12346
G1 X155.398 Y47.239 E12.0149
G1 X154.214 Y47.239 E.12357
G1 X236.804 Y129.829 E12.18965
G1 X236.804 Y131.012 E.12346
G1 X153.031 Y47.239 E12.36426
G1 X151.848 Y47.239 E.12346
G1 X236.804 Y132.195 E12.53886
G1 X236.804 Y133.379 E.12357
G1 X150.664 Y47.239 E12.71361
G1 X149.481 Y47.239 E.12346
G1 X236.804 Y134.562 E12.88821
G1 X236.804 Y135.745 E.12346
M73 P2 R263
G1 X148.298 Y47.239 E13.06281
G1 X147.114 Y47.239 E.12357
G1 X236.804 Y136.929 E13.23756
G1 X236.804 Y138.112 E.12346
M73 Q2 S264
G1 X145.931 Y47.239 E13.41216
G1 X144.748 Y47.239 E.12346
G1 X236.804 Y139.295 E13.58676
G1 X236.804 Y140.479 E.12357
G1 X143.564 Y47.239 E13.76151
G1 X142.381 Y47.239 E.12346
G1 X236.804 Y141.662 E13.93611
G1 X236.804 Y142.845 E.12346
G1 X141.198 Y47.239 E14.11072
G1 X140.014 Y47.239 E.12357
G1 X236.804 Y144.029 E14.28547
G1 X236.804 Y145.212 E.12346
G1 X138.831 Y47.239 E14.46007
G1 X137.648 Y47.239 E.12346
M73 P2 R262
G1 X236.804 Y146.395 E14.63467
G1 X236.804 Y147.579 E.12357
G1 X136.464 Y47.239 E14.80942
G1 X135.281 Y47.239 E.12346
M73 Q2 S263
G1 X236.804 Y148.762 E14.98402
G1 X236.804 Y149.945 E.12346
G1 X134.098 Y47.239 E15.15862
G1 X132.914 Y47.239 E.12357
G1 X236.804 Y151.129 E15.33337
G1 X236.804 Y152.312 E.12346
G1 X131.731 Y47.239 E15.50797
G1 X130.548 Y47.239 E.12346
M73 P3 R262
M73 Q3 S263
G1 X236.804 Y153.495 E15.68258
G1 X236.804 Y154.679 E.12357
G1 X129.364 Y47.239 E15.85732
G1 X128.181 Y47.239 E.12346
G1 X236.804 Y155.862 E16.03193
G1 X236.804 Y157.045 E.12346
M73 P3 R261
G1 X126.998 Y47.239 E16.20653
G1 X125.814 Y47.239 E.12357
M73 Q3 S262
G1 X236.804 Y158.229 E16.38128
G1 X236.804 Y159.412 E.12346
G1 X124.631 Y47.239 E16.55588
G1 X123.448 Y47.239 E.12346
G1 X236.804 Y160.595 E16.73048
G1 X236.804 Y161.779 E.12357
G1 X122.264 Y47.239 E16.90523
G1 X121.081 Y47.239 E.12346
G1 X236.603 Y162.761 E17.05017
G1 X235.42 Y162.761 E.12346
G1 X119.898 Y47.239 E17.05017
G1 X118.714 Y47.239 E.12357
M73 P3 R260
G1 X234.236 Y162.761 E17.05017
G1 X233.053 Y162.761 E.12346
M73 Q3 S261
G1 X117.531 Y47.239 E17.05017
G1 X116.348 Y47.239 E.12346
G1 X231.87 Y162.761 E17.05017
G1 X230.686 Y162.761 E.12357
G1 X115.164 Y47.239 E17.05017
G1 X113.981 Y47.239 E.12346
G1 X229.503 Y162.761 E17.05017
G1 X228.32 Y162.761 E.12346
G1 X112.798 Y47.239 E17.05017
G1 X111.614 Y47.239 E.12357
G1 X227.136 Y162.761 E17.05017
G1 X225.953 Y162.761 E.12346
M73 P3 R259
G1 X110.431 Y47.239 E17.05017
G1 X109.248 Y47.239 E.12346
G1 X224.77 Y162.761 E17.05017
G1 X223.586 Y162.761 E.12357
M73 Q3 S260
G1 X108.064 Y47.239 E17.05017
G1 X106.881 Y47.239 E.12346
M73 P4 R259
M73 Q4 S260
G1 X222.403 Y162.761 E17.05017
G1 X221.22 Y162.761 E.12346
G1 X105.698 Y47.239 E17.05017
G1 X104.514 Y47.239 E.12357
G1 X220.036 Y162.761 E17.05017
G1 X218.853 Y162.761 E.12346
G1 X103.331 Y47.239 E17.05017
G1 X102.148 Y47.239 E.12346
G1 X217.67 Y162.761 E17.05017
G1 X216.486 Y162.761 E.12357
M73 P4 R258
G1 X100.964 Y47.239 E17.05017
G1 X99.781 Y47.239 E.12346
M73 Q4 S259
G1 X215.303 Y162.761 E17.05017
G1 X214.12 Y162.761 E.12346
G1 X98.597 Y47.239 E17.05024
G1 X97.414 Y47.239 E.12346
G1 X212.936 Y162.761 E17.05017
G1 X211.753 Y162.761 E.12346
G1 X96.231 Y47.239 E17.05017
G1 X95.047 Y47.239 E.12357
G1 X210.57 Y162.761 E17.05024
G1 X209.386 Y162.761 E.12357
G1 X93.864 Y47.239 E17.05017
G1 X92.681 Y47.239 E.12346
M73 P4 R257
G1 X208.203 Y162.761 E17.05017
G1 X207.02 Y162.761 E.12346
M73 Q4 S258
G1 X91.497 Y47.239 E17.05024
G1 X90.314 Y47.239 E.12346
G1 X205.836 Y162.761 E17.05017
G1 X204.653 Y162.761 E.12346
G1 X89.131 Y47.239 E17.05017
G1 X87.947 Y47.239 E.12357
G1 X203.47 Y162.761 E17.05024
G1 X202.286 Y162.761 E.12357
G1 X86.764 Y47.239 E17.05017
G1 X85.581 Y47.239 E.12346
G1 X201.103 Y162.761 E17.05017
G1 X199.92 Y162.761 E.12346
M73 P4 R256
G1 X84.397 Y47.239 E17.05024
G1 X83.214 Y47.239 E.12346
M73 P5 R256
M73 Q5 S257
G1 X198.736 Y162.761 E17.05017
G1 X197.553 Y162.761 E.12346
G1 X82.031 Y47.239 E17.05017
G1 X80.847 Y47.239 E.12357
G1 X196.37 Y162.761 E17.05024
G1 X195.186 Y162.761 E.12357
G1 X79.664 Y47.239 E17.05017
G1 X78.481 Y47.239 E.12346
G1 X194.003 Y162.761 E17.05017
G1 X192.82 Y162.761 E.12346
G1 X77.297 Y47.239 E17.05024
G1 X76.114 Y47.239 E.12346
M73 P5 R255
G1 X191.636 Y162.761 E17.05017
G1 X190.453 Y162.761 E.12346
G1 X74.931 Y47.239 E17.05017
G1 X73.747 Y47.239 E.12357
M73 Q5 S256
G1 X189.27 Y162.761 E17.05024
G1 X188.086 Y162.761 E.12357
G1 X72.564 Y47.239 E17.05017
G1 X71.381 Y47.239 E.12346
G1 X186.903 Y162.761 E17.05017
G1 X185.72 Y162.761 E.12346
G1 X70.197 Y47.239 E17.05024
G1 X69.014 Y47.239 E.12346
G1 X184.536 Y162.761 E17.05017
G1 X183.353 Y162.761 E.12346
G1 X67.831 Y47.239 E17.05017
G1 X66.647 Y47.239 E.12357
M73 P5 R254
G1 X182.169 Y162.761 E17.05017
G1 X180.986 Y162.761 E.12346
M73 Q5 S255
G1 X65.464 Y47.239 E17.05017
G1 X64.281 Y47.239 E.12346
G1 X179.803 Y162.761 E17.05017
G1 X178.619 Y162.761 E.12357
G1 X63.097 Y47.239 E17.05017
G1 X61.914 Y47.239 E.12346
G1 X177.436 Y162.761 E17.05017
G1 X176.253 Y162.761 E.12346
M73 P6 R254
G1 X60.731 Y47.239 E17.05017
G1 X59.547 Y47.239 E.12357
M73 Q6 S255
G1 X175.069 Y162.761 E17.05017
G1 X173.886 Y162.761 E.12346
M73 P6 R253
G1 X58.364 Y47.239 E17.05017
G1 X57.181 Y47.239 E.12346
M73 Q6 S254
G1 X172.703 Y162.761 E17.05017
G1 X171.519 Y162.761 E.12357
G1 X55.997 Y47.239 E17.05017
G1 X54.814 Y47.239 E.12346
G1 X170.336 Y162.761 E17.05017
G1 X169.153 Y162.761 E.12346
G1 X53.631 Y47.239 E17.05017
G1 X52.447 Y47.239 E.12357
G1 X167.969 Y162.761 E17.05017
G1 X166.786 Y162.761 E.12346
G1 X51.264 Y47.239 E17.05017
G1 X50.081 Y47.239 E.12346
M73 P6 R252
G1 X165.603 Y162.761 E17.05017
G1 X164.419 Y162.761 E.12357
M73 Q6 S253
G1 X48.897 Y47.239 E17.05017
G1 X47.714 Y47.239 E.12346
G1 X163.236 Y162.761 E17.05017
G1 X162.053 Y162.761 E.12346
G1 X46.531 Y47.239 E17.05017
G1 X45.347 Y47.239 E.12357
G1 X160.869 Y162.761 E17.05017
G1 X159.686 Y162.761 E.12346
G1 X44.164 Y47.239 E17.05017
G1 X42.981 Y47.239 E.12346
G1 X158.503 Y162.761 E17.05017
G1 X157.319 Y162.761 E.12357
G1 X41.797 Y47.239 E17.05017
G1 X40.614 Y47.239 E.12346
M73 P6 R251
G1 X156.136 Y162.761 E17.05017
G1 X154.953 Y162.761 E.12346
M73 Q6 S252
G1 X39.431 Y47.239 E17.05017
G1 X38.247 Y47.239 E.12357
G1 X153.769 Y162.761 E17.05017
G1 X152.586 Y162.761 E.12346
M73 P7 R251
M73 Q7 S252
G1 X37.064 Y47.239 E17.05017
G1 X35.881 Y47.239 E.12346
G1 X151.403 Y162.761 E17.05017
G1 X150.219 Y162.761 E.12357
G1 X34.697 Y47.239 E17.05017
G1 X33.514 Y47.239 E.12346
G1 X149.036 Y162.761 E17.05017
G1 X147.853 Y162.761 E.12346
M73 P7 R250
G1 X32.331 Y47.239 E17.05017
G1 X31.147 Y47.239 E.12357
M73 Q7 S251
G1 X146.669 Y162.761 E17.05017
G1 X145.486 Y162.761 E.12346
G1 X29.964 Y47.239 E17.05017
G1 X28.781 Y47.239 E.12346
G1 X144.303 Y162.761 E17.05017
G1 X143.119 Y162.761 E.12357
G1 X27.597 Y47.239 E17.05017
G1 X26.414 Y47.239 E.12346
G1 X141.936 Y162.761 E17.05017
G1 X140.753 Y162.761 E.12346
G1 X25.231 Y47.239 E17.05017
G1 X24.047 Y47.239 E.12357
M73 P7 R249
G1 X139.569 Y162.761 E17.05017
G1 X138.386 Y162.761 E.12346
M73 Q7 S250
G1 X22.864 Y47.239 E17.05017
G1 X21.681 Y47.239 E.12346
G1 X137.203 Y162.761 E17.05017
G1 X136.019 Y162.761 E.12357
G1 X20.497 Y47.239 E17.05017
G1 X19.314 Y47.239 E.12346
G1 X134.836 Y162.761 E17.05017
G1 X133.653 Y162.761 E.12346
G1 X18.131 Y47.239 E17.05017
G1 X16.947 Y47.239 E.12357
G1 X132.469 Y162.761 E17.05017
G1 X131.286 Y162.761 E.12346
M73 P7 R248
G1 X15.764 Y47.239 E17.05017
G1 X14.581 Y47.239 E.12346
G1 X130.103 Y162.761 E17.05017
G1 X128.919 Y162.761 E.12357
M73 P8 R248
M73 Q8 S249
G1 X13.397 Y47.239 E17.05017
G1 X13.196 Y47.239 E.02098
G1 X13.196 Y48.221 E.10249
G1 X127.736 Y162.761 E16.90523
G1 X126.553 Y162.761 E.12346
G1 X13.196 Y49.404 E16.73063
G1 X13.196 Y50.588 E.12357
G1 X125.369 Y162.761 E16.55588
G1 X124.186 Y162.761 E.12346
G1 X13.196 Y51.771 E16.38128
G1 X13.196 Y52.954 E.12346
G1 X123.003 Y162.761 E16.20668
G1 X121.819 Y162.761 E.12357
M73 P8 R247
G1 X13.196 Y54.138 E16.03193
G1 X13.196 Y55.321 E.12346
M73 Q8 S248
G1 X120.636 Y162.761 E15.85732
G1 X119.453 Y162.761 E.12346
G1 X13.196 Y56.504 E15.68272
G1 X13.196 Y57.688 E.12357
G1 X118.269 Y162.761 E15.50797
G1 X117.086 Y162.761 E.12346
