; generated by PrusaSlicer 2.7.2 on 2025-04-29 at 18:30:16 UTC


;
;
; 

; external perimeters extrusion width = 1.00mm
; perimeters extrusion width = 1.00mm
; infill extrusion width = 0.90mm
; solid infill extrusion width = 0.90mm
; top infill extrusion width = 0.80mm
; first layer extrusion width = 0.90mm

M73 P0 R290
M73 Q0 S292
M201 X1000 Y1000 Z200 E5000 ; sets maximum accelerations, mm/sec^2
M203 X200 Y200 Z12 E120 ; sets maximum feedrates, mm / sec
M204 S1250 T1250 ; sets acceleration (S) and retract acceleration (R), mm/sec^2
M205 X8.00 Y8.00 Z0.40 E4.50 ; sets the jerk limits, mm/sec
M205 S0 T0 ; sets the minimum extruding and travel feed rate, mm/sec

; printing object Slice001.1 id:4 copy 0
; stop printing object Slice001.1 id:4 copy 0

;TYPE:Custom
M862.3 P "MK3S" ; printer model check
M862.1 P0.8 ; nozzle diameter check
M115 U3.13.3 ; tell printer latest fw version
G90 ; use absolute coordinates
M83 ; extruder relative mode
M104 S230 ; set extruder temp
M140 S60 ; set bed temp
M190 S60 ; wait for bed temp
M109 S230 ; wait for extruder temp
G28 W ; home all without mesh bed level
G80 X2.30161 Y24.401 W247.678 H160.178 ; mesh bed levelling

G1 Z0.2 F720
G1 Y-3 F1000 ; go outside print area
G92 E0
G1 X60 E9 F1000 ; intro line
G1 X100 E12.5 F1000 ; intro line

G92 E0
M221 S95
G21 ; set units to millimeters
G90 ; use absolute coordinates
M83 ; use relative distances for extrusion

M900 K0.01 ; Filament gcode LA 1.5
; ; Filament gcode LA 1.0




M107
;LAYER_CHANGE
;Z:0.3
;HEIGHT:0.3
G1 E-.7 F2100
G1 Z.55 F720
G1 X5.89 Y25.066 F10800
G1 Z.3 F720
G1 E.7 F1200
M204 S800
;TYPE:Skirt/Brim
;WIDTH:0.9
G1 X7.391 Y24.819 E.15854
G1 X244.891 Y24.819 E24.75298
G1 X246.772 Y25.215 E.20034
G1 X248.335 Y26.335 E.20041
G1 X249.314 Y27.989 E.20032
G1 X249.562 Y29.49 E.15856
G1 X249.562 Y179.49 E15.63346
G1 X249.166 Y181.372 E.20044
G1 X248.046 Y182.934 E.20032
G1 X246.391 Y183.914 E.20046
G1 X244.891 Y184.161 E.15844
G1 X7.391 Y184.161 E24.75298
G1 X5.509 Y183.766 E.20042
M73 P0 R289
M73 Q0 S291
G1 X3.946 Y182.645 E.20047
G1 X2.967 Y180.991 E.20032
G1 X2.719 Y179.49 E.15856
G1 X2.719 Y29.49 E15.63346
G1 X3.115 Y27.608 E.20044
G1 X4.235 Y26.046 E.20032
G1 X5.787 Y25.128 E.18793
M204 S1000
;WIPE_START
G1 F8640
G1 X5.89 Y25.066 E-.02776
G1 X7.391 Y24.819 E-.35125
G1 X8.781 Y24.819 E-.32099
;WIPE_END
G1 Z.55 F720
G1 X6.113 Y26.089 F10800
G1 Z.3 F720
G1 E.7 F1200
M204 S800
G1 X7.391 Y25.654 E.1407
G1 X244.891 Y25.654 E24.75298
G1 X246.586 Y26.049 E.18139
G1 X247.932 Y27.152 E.18137
G1 X248.726 Y29.49 E.25734
G1 X248.726 Y179.49 E15.63346
G1 X248.331 Y181.185 E.18139
G1 X247.228 Y182.531 E.18137
G1 X244.891 Y183.326 E.25728
G1 X7.391 Y183.326 E24.75298
G1 X5.696 Y182.931 E.18139
G1 X4.35 Y181.828 E.18137
G1 X3.555 Y179.49 E.25738
G1 X3.555 Y29.49 E15.63346
G1 X3.95 Y27.795 E.18139
G1 X5.053 Y26.449 E.18137
G1 X6 Y26.127 E.10425
M204 S1000
; printing object Slice001.1 id:4 copy 0
;WIPE_START
G1 F8640
G1 X6.113 Y26.089 E-.02753
G1 X7.391 Y25.654 E-.31172
G1 X8.953 Y25.654 E-.36075
;WIPE_END
G1 Z.55 F720
G1 X30.211 Y75.966 F10800
G1 Z.3 F720
G1 E.7 F1200
M204 S800
;TYPE:Perimeter
;WIDTH:0.899999
G1 X30.392 Y75.946 E.01898
G1 X30.78 Y75.789 E.04362
G1 X31.096 Y75.512 E.0438
G1 X31.302 Y75.148 E.04359
G1 X31.376 Y74.722 E.04506
G1 X31.376 Y54.258 E2.13282
G1 X31.325 Y53.902 E.03748
M73 P0 R288
G1 X31.146 Y53.534 E.04265
G1 X30.857 Y53.242 E.04282
G1 X30.518 Y53.068 E.03971
G1 X30.123 Y53.004 E.0417
G1 X8.876 Y53.004 E2.21443
G1 X8.876 Y30.976 E2.29582
G1 X243.405 Y30.976 E24.44332
G1 X243.405 Y56.99 E2.71126
M73 Q0 S290
G1 X243.405 Y178.004 E12.61244
G1 X197.682 Y178.004 E4.76539
;WIDTH:0.922345
G1 X196.394 Y177.993 E.13783
;WIDTH:0.965638
G1 X196.302 Y177.972 E.01061
;WIDTH:1.00893
G1 X196.21 Y177.95 E.01114
;WIDTH:1.05222
G1 X196.118 Y177.928 E.01165
;WIDTH:1.09552
G1 X196.026 Y177.907 E.01214
;WIDTH:1.13881
G1 X195.934 Y177.885 E.01268
;WIDTH:1.1821
G1 X195.842 Y177.863 E.01319
;WIDTH:1.2254
G1 X195.75 Y177.842 E.01367
;WIDTH:1.25939
G1 X194.649 Y177.829 E.16411
;WIDTH:1.29579
G1 X193.961 Y177.807 E.10572
G1 X193.857 Y177.829 E.01633
;WIDTH:1.25012
G1 X193.754 Y177.852 E.01561
;WIDTH:1.20445
G1 X193.651 Y177.875 E.01501
;WIDTH:1.15878
G1 X193.571 Y177.897 E.01133
;WIDTH:1.11565
G1 X193.49 Y177.918 E.01097
;WIDTH:1.07252
G1 X193.409 Y177.94 E.01055
;WIDTH:1.02939
G1 X193.328 Y177.961 E.01007
;WIDTH:0.98626
G1 X193.248 Y177.983 E.00954
;WIDTH:0.94313
G1 X193.167 Y178.004 E.00917
;WIDTH:0.899999
G1 X172.682 Y178.004 E2.13501
;WIDTH:0.92237
G1 X171.394 Y177.993 E.13784
;WIDTH:0.965659
G1 X171.302 Y177.972 E.01061
;WIDTH:1.00895
G1 X171.21 Y177.95 E.01114
;WIDTH:1.05224
G1 X171.118 Y177.928 E.01166
;WIDTH:1.09553
G1 X171.026 Y177.907 E.01214
;WIDTH:1.13882
G1 X170.934 Y177.885 E.01268
;WIDTH:1.18211
G1 X170.842 Y177.863 E.01319
;WIDTH:1.2254
G1 X170.75 Y177.842 E.01367
;WIDTH:1.25939
G1 X169.649 Y177.829 E.16411
;WIDTH:1.29578
G1 X168.961 Y177.807 E.10572
G1 X168.857 Y177.829 E.01633
;WIDTH:1.25011
G1 X168.754 Y177.852 E.01561
;WIDTH:1.20444
G1 X168.651 Y177.875 E.01501
;WIDTH:1.15877
G1 X168.571 Y177.897 E.01133
;WIDTH:1.11564
G1 X168.49 Y177.918 E.01097
;WIDTH:1.07251
G1 X168.409 Y177.94 E.01055
;WIDTH:1.02939
G1 X168.328 Y177.961 E.01007
;WIDTH:0.986257
G1 X168.248 Y177.983 E.00954
;WIDTH:0.943128
G1 X168.167 Y178.004 E.00917
;WIDTH:0.899999
G1 X147.682 Y178.004 E2.13501
;WIDTH:0.922371
G1 X146.394 Y177.993 E.13784
;WIDTH:0.96566
G1 X146.302 Y177.972 E.01061
;WIDTH:1.00895
G1 X146.21 Y177.95 E.01114
;WIDTH:1.05224
G1 X146.118 Y177.928 E.01166
;WIDTH:1.09553
G1 X146.026 Y177.907 E.01214
;WIDTH:1.13882
G1 X145.934 Y177.885 E.01268
;WIDTH:1.18211
G1 X145.842 Y177.863 E.01319
;WIDTH:1.2254
G1 X145.75 Y177.842 E.01367
;WIDTH:1.25939
G1 X144.649 Y177.829 E.16411
;WIDTH:1.29579
G1 X143.961 Y177.807 E.10572
G1 X143.857 Y177.829 E.01633
;WIDTH:1.25012
G1 X143.754 Y177.852 E.01561
;WIDTH:1.20445
G1 X143.651 Y177.875 E.01501
;WIDTH:1.15878
G1 X143.571 Y177.897 E.01133
;WIDTH:1.11565
G1 X143.49 Y177.918 E.01097
;WIDTH:1.07252
G1 X143.409 Y177.94 E.01055
;WIDTH:1.02939
G1 X143.328 Y177.961 E.01007
;WIDTH:0.986259
G1 X143.248 Y177.983 E.00954
;WIDTH:0.943129
G1 X143.167 Y178.004 E.00917
;WIDTH:0.899999
G1 X122.682 Y178.004 E2.13501
;WIDTH:0.922357
G1 X121.394 Y177.993 E.13784
;WIDTH:0.965649
G1 X121.302 Y177.972 E.01061
;WIDTH:1.00894
G1 X121.21 Y177.95 E.01114
;WIDTH:1.05223
G1 X121.118 Y177.928 E.01165
;WIDTH:1.09552
G1 X121.026 Y177.907 E.01214
;WIDTH:1.13881
G1 X120.934 Y177.885 E.01268
;WIDTH:1.1821
G1 X120.842 Y177.863 E.01319
;WIDTH:1.22539
G1 X120.75 Y177.842 E.01367
;WIDTH:1.25939
G1 X119.649 Y177.829 E.16411
;WIDTH:1.29579
G1 X118.961 Y177.807 E.10572
G1 X118.857 Y177.829 E.01633
;WIDTH:1.25012
G1 X118.754 Y177.852 E.01561
;WIDTH:1.20445
G1 X118.651 Y177.875 E.01501
;WIDTH:1.15878
G1 X118.571 Y177.897 E.01133
;WIDTH:1.11565
G1 X118.49 Y177.918 E.01097
;WIDTH:1.07252
G1 X118.409 Y177.94 E.01055
;WIDTH:1.02939
G1 X118.328 Y177.961 E.01007
;WIDTH:0.986261
G1 X118.248 Y177.983 E.00954
;WIDTH:0.94313
G1 X118.167 Y178.004 E.00917
;WIDTH:0.899999
G1 X97.682 Y178.004 E2.13501
;WIDTH:0.922344
G1 X96.394 Y177.993 E.13783
;WIDTH:0.965637
G1 X96.302 Y177.972 E.01061
;WIDTH:1.00893
G1 X96.21 Y177.95 E.01114
;WIDTH:1.05222
G1 X96.118 Y177.928 E.01165
;WIDTH:1.09552
G1 X96.026 Y177.907 E.01214
;WIDTH:1.13881
G1 X95.934 Y177.885 E.01268
;WIDTH:1.1821
G1 X95.842 Y177.863 E.01319
;WIDTH:1.2254
G1 X95.75 Y177.842 E.01367
;WIDTH:1.25939
G1 X94.649 Y177.829 E.16411
;WIDTH:1.29579
G1 X93.961 Y177.807 E.10572
G1 X93.858 Y177.829 E.01618
;WIDTH:1.25011
G1 X93.754 Y177.852 E.01575
;WIDTH:1.20444
G1 X93.651 Y177.875 E.01501
;WIDTH:1.15877
G1 X93.571 Y177.897 E.01133
;WIDTH:1.11564
G1 X93.49 Y177.918 E.01097
;WIDTH:1.07251
G1 X93.409 Y177.94 E.01055
;WIDTH:1.02939
G1 X93.328 Y177.961 E.01007
;WIDTH:0.986257
G1 X93.248 Y177.983 E.00954
;WIDTH:0.943128
G1 X93.167 Y178.004 E.00917
;WIDTH:0.899999
G1 X72.682 Y178.004 E2.13501
;WIDTH:0.922344
G1 X71.394 Y177.993 E.13783
;WIDTH:0.965637
G1 X71.302 Y177.972 E.01061
;WIDTH:1.00893
G1 X71.21 Y177.95 E.01114
;WIDTH:1.05222
G1 X71.118 Y177.928 E.01165
;WIDTH:1.09552
G1 X71.026 Y177.907 E.01214
;WIDTH:1.13881
G1 X70.934 Y177.885 E.01268
;WIDTH:1.1821
G1 X70.842 Y177.863 E.01319
;WIDTH:1.2254
G1 X70.75 Y177.842 E.01367
;WIDTH:1.25939
G1 X69.649 Y177.829 E.16411
;WIDTH:1.29579
G1 X68.961 Y177.807 E.10572
G1 X68.857 Y177.829 E.01633
;WIDTH:1.25012
G1 X68.754 Y177.852 E.01561
;WIDTH:1.20445
G1 X68.651 Y177.875 E.01501
;WIDTH:1.15878
G1 X68.571 Y177.897 E.01133
;WIDTH:1.11565
G1 X68.49 Y177.918 E.01097
;WIDTH:1.07252
G1 X68.409 Y177.94 E.01055
;WIDTH:1.02939
G1 X68.328 Y177.961 E.01007
;WIDTH:0.986259
G1 X68.248 Y177.983 E.00954
;WIDTH:0.943129
G1 X68.167 Y178.004 E.00917
;WIDTH:0.899999
G1 X47.682 Y178.004 E2.13501
;WIDTH:0.922365
G1 X46.394 Y177.993 E.13784
;WIDTH:0.965655
G1 X46.302 Y177.972 E.01061
;WIDTH:1.00894
G1 X46.21 Y177.95 E.01114
;WIDTH:1.05224
G1 X46.118 Y177.928 E.01165
;WIDTH:1.09553
G1 X46.026 Y177.907 E.01214
;WIDTH:1.13882
G1 X45.934 Y177.885 E.01268
;WIDTH:1.18211
G1 X45.842 Y177.863 E.01319
;WIDTH:1.2254
G1 X45.75 Y177.842 E.01367
;WIDTH:1.25939
G1 X44.649 Y177.829 E.16411
;WIDTH:1.29579
G1 X43.961 Y177.807 E.10572
G1 X43.857 Y177.829 E.01633
;WIDTH:1.25012
G1 X43.754 Y177.852 E.01561
;WIDTH:1.20445
G1 X43.651 Y177.875 E.01501
;WIDTH:1.15878
G1 X43.571 Y177.897 E.01133
;WIDTH:1.11565
G1 X43.49 Y177.918 E.01097
;WIDTH:1.07252
G1 X43.409 Y177.94 E.01055
;WIDTH:1.02939
G1 X43.328 Y177.961 E.01007
;WIDTH:0.98626
G1 X43.248 Y177.983 E.00954
;WIDTH:0.94313
G1 X43.167 Y178.004 E.00917
;WIDTH:0.899999
G1 X22.682 Y178.004 E2.13501
;WIDTH:0.922365
G1 X21.394 Y177.993 E.13784
;WIDTH:0.965655
G1 X21.302 Y177.972 E.01061
;WIDTH:1.00894
G1 X21.21 Y177.95 E.01114
;WIDTH:1.05224
G1 X21.118 Y177.928 E.01165
;WIDTH:1.09553
G1 X21.026 Y177.907 E.01214
;WIDTH:1.13882
G1 X20.934 Y177.885 E.01268
;WIDTH:1.18211
G1 X20.842 Y177.863 E.01319
;WIDTH:1.2254
G1 X20.75 Y177.842 E.01367
;WIDTH:1.25939
G1 X19.649 Y177.829 E.16411
;WIDTH:1.29579
G1 X18.961 Y177.807 E.10572
G1 X18.857 Y177.829 E.01633
;WIDTH:1.25012
G1 X18.754 Y177.852 E.01561
;WIDTH:1.20445
G1 X18.651 Y177.875 E.01501
;WIDTH:1.15878
G1 X18.571 Y177.897 E.01133
;WIDTH:1.11565
G1 X18.49 Y177.918 E.01097
;WIDTH:1.07252
G1 X18.409 Y177.94 E.01055
;WIDTH:1.02939
G1 X18.328 Y177.961 E.01007
;WIDTH:0.98626
G1 X18.248 Y177.983 E.00954
;WIDTH:0.94313
G1 X18.167 Y178.004 E.00917
;WIDTH:0.899999
G1 X8.876 Y178.004 E.96834
G1 X8.876 Y75.976 E10.63366
G1 X30.091 Y75.976 E2.21109
M204 S1000
G1 X30.091 Y75.976 F10800
G1 X30.123 Y75.14
M204 S800
;TYPE:External perimeter
G1 F1200
G1 X30.281 Y75.109 E.01678
G1 X30.469 Y74.956 E.02526
G1 X30.541 Y74.722 E.02552
G1 X30.541 Y54.258 E2.13282
G1 X30.504 Y54.087 E.01823
G1 X30.347 Y53.905 E.02505
G1 X30.123 Y53.84 E.02431
G1 X8.041 Y53.84 E2.30145
G1 X8.041 Y30.14 E2.47009
G1 X244.241 Y30.14 E24.61747
G1 X244.241 Y56.99 E2.79839
G1 X244.241 Y178.84 E12.69957
G1 X8.041 Y178.84 E24.61747
M73 P0 R287
G1 X8.041 Y75.14 E10.80793
M73 Q0 S289
G1 X30.003 Y75.14 E2.28895
M204 S1000
;WIPE_START
G1 F8640
G1 X30.123 Y75.14 E-.02771
G1 X30.281 Y75.109 E-.03718
G1 X30.469 Y74.956 E-.05597
G1 X30.541 Y74.722 E-.05653
G1 X30.541 Y72.459 E-.52261
;WIPE_END
G1 Z.55 F720
G1 X190.253 Y48.026 F10800
G1 Z.3 F720
G1 E.7 F1200
M204 S800
;TYPE:Perimeter
G1 X190.529 Y48.072 E.02916
G1 X190.875 Y48.255 E.04079
G1 X191.173 Y48.573 E.04542
G1 X191.343 Y48.97 E.04501
G1 X191.376 Y49.258 E.03021
G1 X191.376 Y74.722 E2.65393
G1 X191.312 Y75.12 E.04201
G1 X191.116 Y75.486 E.04327
G1 X190.799 Y75.778 E.04492
G1 X190.4 Y75.945 E.04508
G1 X190.123 Y75.976 E.02905
G1 X184.066 Y75.976 E.63128
G1 X64.658 Y75.976 E12.44506
G1 X64.249 Y75.907 E.04323
M73 P1 R287
M73 Q1 S289
G1 X63.88 Y75.705 E.04384
G1 X63.599 Y75.391 E.04392
G1 X63.436 Y74.998 E.04434
G1 X63.405 Y74.722 E.02895
G1 X63.405 Y49.258 E2.65393
G1 X63.477 Y48.839 E.04431
G1 X63.657 Y48.504 E.03964
G1 X63.908 Y48.254 E.03692
G1 X64.253 Y48.072 E.04065
G1 X64.658 Y48.004 E.0428
G1 X190.123 Y48.004 E13.07634
G1 X190.135 Y48.006 E.00127
M204 S1000
G1 X190.135 Y48.006 F10800
G1 X190.123 Y48.84
M204 S800
;TYPE:External perimeter
G1 F1200
G1 X190.347 Y48.906 E.02434
G1 X190.498 Y49.075 E.02362
G1 X190.541 Y49.258 E.01959
G1 X190.541 Y74.722 E2.65393
G1 X190.473 Y74.95 E.0248
G1 X190.284 Y75.108 E.02567
G1 X190.123 Y75.14 E.01711
G1 X184.066 Y75.14 E.63128
G1 X64.658 Y75.14 E12.44506
G1 X64.425 Y75.069 E.02539
G1 X64.271 Y74.879 E.02549
G1 X64.241 Y74.722 E.01666
G1 X64.241 Y49.258 E2.65393
G1 X64.309 Y49.029 E.0249
G1 X64.492 Y48.875 E.02493
G1 X64.658 Y48.84 E.01768
G1 X190.003 Y48.84 E13.06383
M204 S1000
;WIPE_START
G1 F8640
G1 X190.123 Y48.84 E-.02771
G1 X190.347 Y48.906 E-.05392
G1 X190.498 Y49.075 E-.05233
G1 X190.541 Y49.258 E-.04341
G1 X190.541 Y51.521 E-.52263
;WIPE_END
G1 Z.55 F720
G1 X190.621 Y170.667 F10800
G1 Z.3 F720
G1 E.7 F1200
M204 S800
;TYPE:Perimeter
G1 X190.897 Y169.957 E.07939
G1 X191.379 Y169.206 E.09301
G1 X192.001 Y168.565 E.09309
G1 X192.222 Y168.394 E.02912
G1 X192.907 Y167.975 E.08369
G1 X193.161 Y167.856 E.02923
G1 X193.78 Y167.648 E.06806
G1 X194.654 Y167.515 E.09214
G1 X195.546 Y167.557 E.09307
G1 X196.411 Y167.775 E.09297
G1 X197.216 Y168.159 E.09296
G1 X197.93 Y168.696 E.09311
G1 X198.522 Y169.363 E.09295
G1 X198.97 Y170.136 E.09312
G1 X199.257 Y170.979 E.09281
G1 X199.37 Y171.866 E.09319
G1 X199.307 Y172.754 E.09278
G1 X199.066 Y173.617 E.09339
G1 X198.663 Y174.41 E.09271
G1 X198.108 Y175.11 E.0931
G1 X197.426 Y175.685 E.09297
G1 X196.463 Y176.184 E.11304
;WIDTH:0.946485
G1 X196.341 Y176.24 E.01477
;WIDTH:0.99297
G1 X196.219 Y176.296 E.01555
;WIDTH:1.03945
G1 X196.096 Y176.353 E.01649
;WIDTH:1.08594
G1 X195.974 Y176.409 E.0171
;WIDTH:1.13243
G1 X195.852 Y176.465 E.01788
;WIDTH:1.17891
G1 X195.73 Y176.522 E.01872
;WIDTH:1.2254
G1 X195.608 Y176.578 E.01944
;WIDTH:1.27446
G1 X195.541 Y176.616 E.01163
G1 X194.685 Y176.642 E.12925
;WIDTH:1.29579
G1 X194.067 Y176.584 E.09533
G1 X193.97 Y176.544 E.01611
;WIDTH:1.25012
G1 X193.872 Y176.504 E.01565
;WIDTH:1.20445
G1 X193.775 Y176.463 E.01497
;WIDTH:1.15878
G1 X193.729 Y176.427 E.00797
;WIDTH:1.11565
G1 X193.683 Y176.391 E.00766
;WIDTH:1.07252
G1 X193.637 Y176.355 E.00734
;WIDTH:1.02939
G1 X193.591 Y176.318 E.00711
;WIDTH:0.98626
G1 X193.546 Y176.282 E.00663
;WIDTH:0.94313
G1 X193.5 Y176.246 E.0064
;WIDTH:0.899999
G1 X192.958 Y176.033 E.06069
G1 X192.195 Y175.57 E.09302
G1 X191.54 Y174.965 E.09293
G1 X191.016 Y174.243 E.09298
G1 X190.647 Y173.43 E.09305
G1 X190.446 Y172.56 E.09306
G1 X190.421 Y171.668 E.093
G1 X190.573 Y170.79 E.09287
G1 X190.577 Y170.779 E.00122
M204 S1000
G1 X190.577 Y170.779 F10800
G1 X191.389 Y170.973
M204 S800
;TYPE:External perimeter
G1 F1200
G1 X191.392 Y170.955 E.0019
G1 X191.667 Y170.282 E.07577
G1 X192.07 Y169.677 E.07576
G1 X192.584 Y169.164 E.07569
G1 X193.343 Y168.688 E.09337
G1 X194.038 Y168.443 E.0768
G1 X194.758 Y168.344 E.07575
G1 X195.483 Y168.39 E.07571
G1 X196.185 Y168.579 E.07577
G1 X196.835 Y168.903 E.07569
G1 X197.408 Y169.35 E.07574
G1 X197.881 Y169.9 E.07561
G1 X198.236 Y170.535 E.07582
G1 X198.459 Y171.226 E.07568
G1 X198.539 Y171.949 E.07581
G1 X198.475 Y172.672 E.07565
G1 X198.268 Y173.369 E.07578
G1 X197.929 Y174.011 E.07567
G1 X197.468 Y174.573 E.07576
G1 X196.905 Y175.032 E.07571
G1 X196.101 Y175.431 E.09355
G1 X195.386 Y175.605 E.07669
G1 X194.66 Y175.631 E.07571
G1 X193.942 Y175.513 E.07584
G1 X193.263 Y175.255 E.0757
G1 X192.649 Y174.868 E.07564
G1 X192.123 Y174.367 E.07571
G1 X191.707 Y173.771 E.07575
G1 X191.417 Y173.105 E.07571
G1 X191.265 Y172.395 E.07568
G1 X191.257 Y171.668 E.07577
G1 X191.366 Y171.091 E.0612
M204 S1000
;WIPE_START
G1 F8640
G1 X191.389 Y170.973 E-.02776
G1 X191.392 Y170.955 E-.00421
G1 X191.667 Y170.282 E-.16787
G1 X192.07 Y169.677 E-.16785
G1 X192.584 Y169.164 E-.16768
G1 X193.188 Y168.785 E-.16463
;WIPE_END
G1 Z.55 F720
G1 X166.4 Y169.184 F10800
G1 Z.3 F720
G1 E.7 F1200
M204 S800
;TYPE:Perimeter
G1 X166.434 Y169.132 E.00648
G1 X167.001 Y168.565 E.08357
