; generated by PrusaSlicer 2.7.2 on 2025-04-29 at 18:28:53 UTC


;
;
; 

; external perimeters extrusion width = 1.00mm
; perimeters extrusion width = 1.00mm
; infill extrusion width = 0.90mm
; solid infill extrusion width = 0.90mm
; top infill extrusion width = 0.80mm
; first layer extrusion width = 0.90mm

M73 P0 R208
M73 Q0 S209
M201 X1000 Y1000 Z200 E5000 ; sets maximum accelerations, mm/sec^2
M203 X200 Y200 Z12 E120 ; sets maximum feedrates, mm / sec
M204 S1250 T1250 ; sets acceleration (S) and retract acceleration (R), mm/sec^2
M205 X8.00 Y8.00 Z0.40 E4.50 ; sets the jerk limits, mm/sec
M205 S0 T0 ; sets the minimum extruding and travel feed rate, mm/sec

; printing object Slice003.1 id:2 copy 0
; stop printing object Slice003.1 id:2 copy 0

;TYPE:Custom
M862.3 P "MK3S" ; printer model check
M862.1 P0.8 ; nozzle diameter check
M115 U3.13.3 ; tell printer latest fw version
G90 ; use absolute coordinates
M83 ; extruder relative mode
M104 S230 ; set extruder temp
M140 S60 ; set bed temp
M190 S60 ; wait for bed temp
M109 S230 ; wait for extruder temp
G28 W ; home all without mesh bed level
G80 X20.4965 Y48.5851 W197.178 H130.092 ; mesh bed levelling

G1 Z0.2 F720
G1 Y-3 F1000 ; go outside print area
G92 E0
G1 X60 E9 F1000 ; intro line
G1 X100 E12.5 F1000 ; intro line

G92 E0
M221 S95
G21 ; set units to millimeters
G90 ; use absolute coordinates
M83 ; use relative distances for extrusion

M900 K0.01 ; Filament gcode LA 1.5
; ; Filament gcode LA 1.0




M107
;LAYER_CHANGE
;Z:0.3
;HEIGHT:0.3
G1 E-.7 F2100
G1 Z.55 F720
G1 X24.085 Y49.251 F10800
G1 Z.3 F720
G1 E.7 F1200
M204 S800
;TYPE:Skirt/Brim
;WIDTH:0.9
G1 X25.586 Y49.003 E.15856
G1 X212.586 Y49.003 E19.48971
G1 X214.467 Y49.399 E.20034
G1 X216.03 Y50.519 E.20041
G1 X217.009 Y52.173 E.20032
G1 X217.257 Y53.674 E.15856
G1 X217.257 Y173.588 E12.4978
G1 X216.861 Y175.47 E.20044
G1 X215.741 Y177.032 E.20032
G1 X214.086 Y178.012 E.20046
G1 X212.586 Y178.259 E.15844
G1 X25.586 Y178.259 E19.48971
G1 X23.704 Y177.864 E.20042
G1 X22.141 Y176.743 E.20047
G1 X21.162 Y175.089 E.20032
G1 X20.914 Y173.588 E.15856
G1 X20.914 Y53.674 E12.4978
G1 X21.31 Y51.793 E.20034
G1 X22.43 Y50.23 E.20041
G1 X23.982 Y49.312 E.18793
M204 S1000
;WIPE_START
G1 F8640
G1 X24.085 Y49.251 E-.02764
G1 X25.586 Y49.003 E-.35128
G1 X26.977 Y49.003 E-.32108
;WIPE_END
G1 Z.55 F720
G1 X24.308 Y50.273 F10800
G1 Z.3 F720
G1 E.7 F1200
M204 S800
G1 X25.586 Y49.839 E.14067
G1 X212.586 Y49.839 E19.48971
G1 X214.28 Y50.233 E.18127
M73 Q0 S208
G1 X215.626 Y51.336 E.18137
G1 X216.421 Y53.674 E.25738
G1 X216.421 Y173.588 E12.4978
G1 X216.026 Y175.283 E.18139
G1 X214.923 Y176.629 E.18137
G1 X212.586 Y177.424 E.25728
G1 X25.586 Y177.424 E19.48971
G1 X23.891 Y177.029 E.18139
M73 P0 R207
G1 X22.545 Y175.926 E.18137
G1 X21.75 Y173.588 E.25738
G1 X21.75 Y53.674 E12.4978
G1 X22.145 Y51.979 E.18139
G1 X23.248 Y50.633 E.18137
G1 X24.195 Y50.311 E.10425
M204 S1000
; printing object Slice003.1 id:2 copy 0
;WIPE_START
G1 F8640
G1 X24.308 Y50.273 E-.02753
G1 X25.586 Y49.839 E-.31165
G1 X27.149 Y49.839 E-.36082
;WIPE_END
G1 Z.55 F720
G1 X211.1 Y172.102 F10800
G1 Z.3 F720
G1 E.7 F1200
M204 S800
;TYPE:Perimeter
;WIDTH:0.899999
G1 X27.071 Y172.102 E19.18005
G1 X27.071 Y55.16 E12.18805
G1 X211.1 Y55.16 E19.18005
G1 X211.1 Y113.631 E6.09402
G1 X211.1 Y171.982 E6.08152
M204 S1000
;WIPE_START
G1 F8640
G1 X211.1 Y172.102 E-.02771
G1 X208.188 Y172.102 E-.67229
;WIPE_END
G1 Z.55 F720
G1 X211.936 Y172.938 F10800
G1 Z.3 F720
G1 E.7 F1200
M204 S800
;TYPE:External perimeter
G1 X26.236 Y172.938 E19.35421
G1 X26.236 Y54.324 E12.36231
M73 Q0 S207
G1 X211.936 Y54.324 E19.35421
M73 P0 R206
G1 X211.936 Y113.631 E6.18115
M73 P1 R206
M73 Q1 S207
G1 X211.936 Y172.818 E6.16865
M204 S1000
;WIPE_START
G1 F8640
G1 X211.936 Y172.938 E-.02771
G1 X209.024 Y172.938 E-.67229
;WIPE_END
G1 Z.55 F720
G1 X210.766 Y57.188 F10800
G1 Z.3 F720
G1 E.7 F1200
M204 S800
;TYPE:Solid infill
;WIDTH:0.902292
G1 X209.448 Y55.87 E.1948
G1 X208.263 Y55.87 E.12384
G1 X210.39 Y57.997 E.31437
G1 X210.39 Y59.182 E.12384
G1 X207.078 Y55.87 E.48951
G1 X205.893 Y55.87 E.12384
G1 X210.39 Y60.367 E.66465
G1 X210.39 Y61.552 E.12384
G1 X204.708 Y55.87 E.83979
G1 X203.523 Y55.87 E.12384
G1 X210.39 Y62.737 E1.01493
G1 X210.39 Y63.922 E.12384
G1 X202.338 Y55.87 E1.19007
G1 X201.153 Y55.87 E.12384
G1 X210.39 Y65.107 E1.36521
G1 X210.39 Y66.292 E.12384
G1 X199.968 Y55.87 E1.54035
G1 X198.783 Y55.87 E.12384
G1 X210.39 Y67.477 E1.71549
G1 X210.39 Y68.662 E.12384
G1 X197.598 Y55.87 E1.89063
G1 X196.413 Y55.87 E.12384
G1 X210.39 Y69.847 E2.06577
G1 X210.39 Y71.032 E.12384
G1 X195.228 Y55.87 E2.24091
G1 X194.043 Y55.87 E.12384
G1 X210.39 Y72.217 E2.41605
G1 X210.39 Y73.402 E.12384
G1 X192.858 Y55.87 E2.59119
G1 X191.673 Y55.87 E.12384
G1 X210.39 Y74.587 E2.76633
G1 X210.39 Y75.772 E.12384
G1 X190.488 Y55.87 E2.94147
G1 X189.303 Y55.87 E.12384
G1 X210.39 Y76.957 E3.11661
G1 X210.39 Y78.142 E.12384
G1 X188.118 Y55.87 E3.29175
G1 X186.933 Y55.87 E.12384
G1 X210.39 Y79.327 E3.46689
G1 X210.39 Y80.512 E.12384
G1 X185.748 Y55.87 E3.64203
G1 X184.563 Y55.87 E.12384
G1 X210.39 Y81.697 E3.81718
G1 X210.39 Y82.882 E.12384
G1 X183.378 Y55.87 E3.99232
G1 X182.193 Y55.87 E.12384
G1 X210.39 Y84.067 E4.16746
G1 X210.39 Y85.252 E.12384
G1 X181.008 Y55.87 E4.3426
G1 X179.823 Y55.87 E.12384
G1 X210.39 Y86.437 E4.51774
G1 X210.39 Y87.622 E.12384
G1 X178.638 Y55.87 E4.69288
G1 X177.453 Y55.87 E.12384
M73 Q1 S206
G1 X210.39 Y88.807 E4.86802
G1 X210.39 Y89.992 E.12384
G1 X176.268 Y55.87 E5.04316
G1 X175.083 Y55.87 E.12384
G1 X210.39 Y91.177 E5.2183
G1 X210.39 Y92.362 E.12384
G1 X173.898 Y55.87 E5.39344
G1 X172.713 Y55.87 E.12384
M73 P1 R205
G1 X210.39 Y93.547 E5.56858
G1 X210.39 Y94.732 E.12384
G1 X171.528 Y55.87 E5.74372
G1 X170.343 Y55.87 E.12384
G1 X210.39 Y95.916 E5.91879
G1 X210.39 Y97.101 E.12384
G1 X169.158 Y55.87 E6.09393
G1 X167.973 Y55.87 E.12384
G1 X210.39 Y98.286 E6.26907
G1 X210.39 Y99.471 E.12384
G1 X166.788 Y55.87 E6.44421
G1 X165.603 Y55.87 E.12384
G1 X210.39 Y100.656 E6.61935
G1 X210.39 Y101.841 E.12384
G1 X164.418 Y55.87 E6.79449
G1 X163.233 Y55.87 E.12384
G1 X210.39 Y103.026 E6.96963
G1 X210.39 Y104.211 E.12384
G1 X162.048 Y55.87 E7.14477
G1 X160.863 Y55.87 E.12384
G1 X210.39 Y105.396 E7.31991
G1 X210.39 Y106.581 E.12384
G1 X159.678 Y55.87 E7.49505
G1 X158.493 Y55.87 E.12384
G1 X210.39 Y107.766 E7.67019
G1 X210.39 Y108.951 E.12384
G1 X157.308 Y55.87 E7.84533
G1 X156.123 Y55.87 E.12384
G1 X210.39 Y110.136 E8.02047
G1 X210.39 Y111.321 E.12384
M73 Q1 S205
G1 X154.938 Y55.87 E8.19561
G1 X153.753 Y55.87 E.12384
G1 X210.39 Y112.506 E8.37075
G1 X210.39 Y113.691 E.12384
G1 X152.568 Y55.87 E8.54589
G1 X151.383 Y55.87 E.12384
M73 P1 R204
G1 X210.39 Y114.876 E8.72103
G1 X210.39 Y116.061 E.12384
G1 X150.199 Y55.87 E8.8961
G1 X149.014 Y55.87 E.12384
G1 X210.39 Y117.246 E9.07124
G1 X210.39 Y118.431 E.12384
M73 P2 R204
M73 Q2 S205
G1 X147.829 Y55.87 E9.24638
G1 X146.644 Y55.87 E.12384
G1 X210.39 Y119.616 E9.42152
G1 X210.39 Y120.801 E.12384
G1 X145.459 Y55.87 E9.59666
G1 X144.274 Y55.87 E.12384
G1 X210.39 Y121.986 E9.7718
G1 X210.39 Y123.171 E.12384
G1 X143.089 Y55.87 E9.94694
G1 X141.904 Y55.87 E.12384
G1 X210.39 Y124.356 E10.12208
G1 X210.39 Y125.541 E.12384
G1 X140.719 Y55.87 E10.29722
G1 X139.534 Y55.87 E.12384
G1 X210.39 Y126.726 E10.47237
G1 X210.39 Y127.911 E.12384
M73 Q2 S204
G1 X138.349 Y55.87 E10.64751
G1 X137.164 Y55.87 E.12384
M73 P2 R203
G1 X210.39 Y129.096 E10.82265
G1 X210.39 Y130.281 E.12384
G1 X135.979 Y55.87 E10.99779
G1 X134.794 Y55.87 E.12384
G1 X210.39 Y131.466 E11.17293
G1 X210.39 Y132.651 E.12384
G1 X133.609 Y55.87 E11.34807
G1 X132.424 Y55.87 E.12384
G1 X210.39 Y133.836 E11.52321
G1 X210.39 Y135.021 E.12384
G1 X131.239 Y55.87 E11.69835
G1 X130.054 Y55.87 E.12384
G1 X210.39 Y136.206 E11.87349
G1 X210.39 Y137.391 E.12384
G1 X128.869 Y55.87 E12.04863
G1 X127.684 Y55.87 E.12384
G1 X210.39 Y138.576 E12.22377
G1 X210.39 Y139.761 E.12384
G1 X126.499 Y55.87 E12.39891
M73 Q2 S203
G1 X125.314 Y55.87 E.12384
G1 X210.39 Y140.946 E12.57405
G1 X210.39 Y142.131 E.12384
M73 P2 R202
G1 X124.129 Y55.87 E12.74919
G1 X122.944 Y55.87 E.12384
G1 X210.39 Y143.316 E12.92433
G1 X210.39 Y144.501 E.12384
G1 X121.759 Y55.87 E13.09947
G1 X120.574 Y55.87 E.12384
M73 P3 R202
M73 Q3 S203
G1 X210.39 Y145.686 E13.27461
G1 X210.39 Y146.871 E.12384
G1 X119.389 Y55.87 E13.44975
G1 X118.204 Y55.87 E.12384
G1 X210.39 Y148.056 E13.62489
G1 X210.39 Y149.241 E.12384
G1 X117.019 Y55.87 E13.80003
G1 X115.834 Y55.87 E.12384
G1 X210.39 Y150.426 E13.97517
G1 X210.39 Y151.611 E.12384
M73 Q3 S202
G1 X114.649 Y55.87 E14.15032
G1 X113.464 Y55.87 E.12384
M73 P3 R201
G1 X210.39 Y152.796 E14.32546
G1 X210.39 Y153.981 E.12384
G1 X112.279 Y55.87 E14.5006
G1 X111.094 Y55.87 E.12384
G1 X210.39 Y155.166 E14.67574
G1 X210.39 Y156.351 E.12384
G1 X109.909 Y55.87 E14.85088
G1 X108.724 Y55.87 E.12384
G1 X210.39 Y157.536 E15.02602
G1 X210.39 Y158.721 E.12384
G1 X107.539 Y55.87 E15.20116
G1 X106.354 Y55.87 E.12384
G1 X210.39 Y159.906 E15.3763
G1 X210.39 Y161.091 E.12384
M73 Q3 S201
G1 X105.169 Y55.87 E15.55144
G1 X103.984 Y55.87 E.12384
G1 X210.39 Y162.276 E15.72658
G1 X210.39 Y163.461 E.12384
M73 P3 R200
G1 X102.799 Y55.87 E15.90172
G1 X101.614 Y55.87 E.12384
G1 X210.39 Y164.646 E16.07686
G1 X210.39 Y165.831 E.12384
G1 X100.429 Y55.87 E16.252
G1 X99.244 Y55.87 E.12384
M73 P4 R200
M73 Q4 S201
G1 X210.39 Y167.016 E16.42714
G1 X210.39 Y168.201 E.12384
G1 X98.059 Y55.87 E16.60228
G1 X96.874 Y55.87 E.12384
G1 X210.39 Y169.386 E16.77742
G1 X210.39 Y170.571 E.12384
M73 Q4 S200
G1 X95.689 Y55.87 E16.95256
G1 X94.504 Y55.87 E.12384
M73 P4 R199
G1 X210.026 Y171.392 E17.0739
G1 X208.841 Y171.392 E.12384
G1 X93.319 Y55.87 E17.0739
G1 X92.134 Y55.87 E.12384
G1 X207.656 Y171.392 E17.0739
G1 X206.471 Y171.392 E.12384
G1 X90.949 Y55.87 E17.0739
G1 X89.764 Y55.87 E.12384
G1 X205.286 Y171.392 E17.0739
G1 X204.101 Y171.392 E.12384
G1 X88.579 Y55.87 E17.0739
G1 X87.394 Y55.87 E.12384
M73 Q4 S199
G1 X202.916 Y171.392 E17.0739
G1 X201.731 Y171.392 E.12384
G1 X86.209 Y55.87 E17.0739
G1 X85.024 Y55.87 E.12384
M73 P4 R198
G1 X200.546 Y171.392 E17.0739
G1 X199.361 Y171.392 E.12384
G1 X83.839 Y55.87 E17.0739
G1 X82.654 Y55.87 E.12384
G1 X198.176 Y171.392 E17.0739
G1 X196.991 Y171.392 E.12384
M73 P5 R198
M73 Q5 S199
G1 X81.469 Y55.87 E17.0739
G1 X80.284 Y55.87 E.12384
G1 X195.807 Y171.392 E17.07398
G1 X194.622 Y171.392 E.12384
G1 X79.099 Y55.87 E17.07398
G1 X77.914 Y55.87 E.12384
M73 Q5 S198
G1 X193.437 Y171.392 E17.07398
G1 X192.252 Y171.392 E.12384
M73 P5 R197
G1 X76.729 Y55.87 E17.07398
G1 X75.544 Y55.87 E.12384
G1 X191.067 Y171.392 E17.07398
G1 X189.882 Y171.392 E.12384
G1 X74.359 Y55.87 E17.07398
G1 X73.174 Y55.87 E.12384
G1 X188.697 Y171.392 E17.07398
G1 X187.512 Y171.392 E.12384
G1 X71.989 Y55.87 E17.07398
G1 X70.805 Y55.87 E.12374
G1 X186.327 Y171.392 E17.0739
G1 X185.142 Y171.392 E.12384
M73 Q5 S197
G1 X69.62 Y55.87 E17.0739
G1 X68.435 Y55.87 E.12384
M73 P5 R196
G1 X183.957 Y171.392 E17.0739
G1 X182.772 Y171.392 E.12384
G1 X67.25 Y55.87 E17.0739
G1 X66.065 Y55.87 E.12384
G1 X181.587 Y171.392 E17.0739
G1 X180.402 Y171.392 E.12384
G1 X64.88 Y55.87 E17.0739
G1 X63.695 Y55.87 E.12384
M73 P6 R196
G1 X179.217 Y171.392 E17.0739
G1 X178.032 Y171.392 E.12384
M73 Q6 S197
G1 X62.51 Y55.87 E17.0739
G1 X61.325 Y55.87 E.12384
M73 Q6 S196
G1 X176.847 Y171.392 E17.0739
G1 X175.662 Y171.392 E.12384
M73 P6 R195
G1 X60.14 Y55.87 E17.0739
G1 X58.955 Y55.87 E.12384
G1 X174.477 Y171.392 E17.0739
G1 X173.292 Y171.392 E.12384
G1 X57.77 Y55.87 E17.0739
G1 X56.585 Y55.87 E.12384
G1 X172.107 Y171.392 E17.0739
G1 X170.922 Y171.392 E.12384
G1 X55.4 Y55.87 E17.0739
G1 X54.215 Y55.87 E.12384
G1 X169.737 Y171.392 E17.0739
G1 X168.552 Y171.392 E.12384
G1 X53.03 Y55.87 E17.0739
M73 Q6 S195
G1 X51.845 Y55.87 E.12384
G1 X167.367 Y171.392 E17.0739
G1 X166.182 Y171.392 E.12384
M73 P6 R194
G1 X50.66 Y55.87 E17.0739
G1 X49.475 Y55.87 E.12384
G1 X164.997 Y171.392 E17.0739
G1 X163.812 Y171.392 E.12384
G1 X48.29 Y55.87 E17.0739
G1 X47.105 Y55.87 E.12384
G1 X162.627 Y171.392 E17.0739
G1 X161.442 Y171.392 E.12384
G1 X45.92 Y55.87 E17.0739
G1 X44.735 Y55.87 E.12384
M73 P7 R194
M73 Q7 S195
G1 X160.257 Y171.392 E17.0739
G1 X159.072 Y171.392 E.12384
M73 Q7 S194
G1 X43.55 Y55.87 E17.0739
G1 X42.365 Y55.87 E.12384
M73 P7 R193
G1 X157.887 Y171.392 E17.0739
G1 X156.702 Y171.392 E.12384
G1 X41.18 Y55.87 E17.0739
G1 X39.995 Y55.87 E.12384
G1 X155.517 Y171.392 E17.0739
G1 X154.332 Y171.392 E.12384
G1 X38.81 Y55.87 E17.0739
G1 X37.625 Y55.87 E.12384
G1 X153.147 Y171.392 E17.0739
G1 X151.962 Y171.392 E.12384
G1 X36.44 Y55.87 E17.0739
G1 X35.255 Y55.87 E.12384
M73 Q7 S193
G1 X150.777 Y171.392 E17.0739
G1 X149.592 Y171.392 E.12384
M73 P7 R192
G1 X34.07 Y55.87 E17.0739
G1 X32.885 Y55.87 E.12384
G1 X148.407 Y171.392 E17.0739
G1 X147.222 Y171.392 E.12384
G1 X31.7 Y55.87 E17.0739
G1 X30.515 Y55.87 E.12384
G1 X146.037 Y171.392 E17.0739
G1 X144.852 Y171.392 E.12384
G1 X29.33 Y55.87 E17.0739
G1 X28.145 Y55.87 E.12384
G1 X143.667 Y171.392 E17.0739
G1 X142.482 Y171.392 E.12384
M73 P8 R192
M73 Q8 S192
G1 X27.781 Y56.691 E16.95256
G1 X27.781 Y57.876 E.12384
M73 P8 R191
G1 X141.297 Y171.392 E16.77742
G1 X140.112 Y171.392 E.12384
G1 X27.781 Y59.061 E16.60228
G1 X27.781 Y60.246 E.12384
G1 X138.927 Y171.392 E16.42714
G1 X137.742 Y171.392 E.12384
G1 X27.781 Y61.431 E16.252
G1 X27.781 Y62.616 E.12384
G1 X136.557 Y171.392 E16.07686
G1 X135.372 Y171.392 E.12384
G1 X27.781 Y63.801 E15.90172
G1 X27.781 Y64.986 E.12384
G1 X134.187 Y171.392 E15.72658
G1 X133.002 Y171.392 E.12384
M73 Q8 S191
G1 X27.781 Y66.171 E15.55144
G1 X27.781 Y67.356 E.12384
M73 P8 R190
G1 X131.817 Y171.392 E15.3763
G1 X130.632 Y171.392 E.12384
G1 X27.781 Y68.541 E15.20116
G1 X27.781 Y69.726 E.12384
G1 X129.447 Y171.392 E15.02602
G1 X128.262 Y171.392 E.12384
G1 X27.781 Y70.911 E14.85088
G1 X27.781 Y72.096 E.12384
G1 X127.077 Y171.392 E14.67574
G1 X125.892 Y171.392 E.12384
G1 X27.781 Y73.281 E14.5006
G1 X27.781 Y74.466 E.12384
G1 X124.707 Y171.392 E14.32546
G1 X123.522 Y171.392 E.12384
M73 P9 R190
M73 Q8 S190
G1 X27.781 Y75.651 E14.15032
G1 X27.781 Y76.836 E.12384
M73 Q9 S190
G1 X122.337 Y171.392 E13.97517
G1 X121.152 Y171.392 E.12384
M73 P9 R189
G1 X27.781 Y78.021 E13.80003
G1 X27.781 Y79.206 E.12384
G1 X119.967 Y171.392 E13.62489
G1 X118.782 Y171.392 E.12384
G1 X27.781 Y80.391 E13.44975
G1 X27.781 Y81.576 E.12384
G1 X117.597 Y171.392 E13.27461
G1 X116.413 Y171.392 E.12374
G1 X27.781 Y82.761 E13.09955
G1 X27.781 Y83.946 E.12384
G1 X115.228 Y171.392 E12.92441
G1 X114.043 Y171.392 E.12384
G1 X27.781 Y85.131 E12.74927
G1 X27.781 Y86.316 E.12384
M73 Q9 S189
G1 X112.858 Y171.392 E12.57412
G1 X111.673 Y171.392 E.12384
G1 X27.781 Y87.501 E12.39898
G1 X27.781 Y88.686 E.12384
M73 P9 R188
G1 X110.488 Y171.392 E12.22384
G1 X109.303 Y171.392 E.12384
G1 X27.781 Y89.871 E12.0487
G1 X27.781 Y91.056 E.12384
G1 X108.118 Y171.392 E11.87356
G1 X106.933 Y171.392 E.12384
G1 X27.781 Y92.241 E11.69842
G1 X27.781 Y93.426 E.12384
G1 X105.748 Y171.392 E11.52328
G1 X104.563 Y171.392 E.12384
G1 X27.781 Y94.611 E11.34814
G1 X27.781 Y95.796 E.12384
G1 X103.378 Y171.392 E11.173
G1 X102.193 Y171.392 E.12384
G1 X27.781 Y96.981 E10.99786
G1 X27.781 Y98.166 E.12384
G1 X101.008 Y171.392 E10.82272
G1 X99.823 Y171.392 E.12384
M73 Q9 S188
G1 X27.781 Y99.351 E10.64758
G1 X27.781 Y100.536 E.12384
M73 P10 R188
G1 X98.638 Y171.392 E10.47244
G1 X97.453 Y171.392 E.12384
M73 P10 R187
M73 Q10 S188
G1 X27.781 Y101.721 E10.2973
G1 X27.781 Y102.906 E.12384
G1 X96.268 Y171.392 E10.12216
G1 X95.083 Y171.392 E.12384
G1 X27.781 Y104.091 E9.94702
G1 X27.781 Y105.276 E.12384
G1 X93.898 Y171.392 E9.77188
G1 X92.713 Y171.392 E.12384
G1 X27.781 Y106.461 E9.59674
G1 X27.781 Y107.646 E.12384
G1 X91.528 Y171.392 E9.4216
G1 X90.343 Y171.392 E.12384
G1 X27.781 Y108.831 E9.24646
G1 X27.781 Y110.016 E.12384
G1 X89.158 Y171.392 E9.07132
G1 X87.973 Y171.392 E.12384
G1 X27.781 Y111.201 E8.89617
G1 X27.781 Y112.386 E.12384
G1 X86.788 Y171.392 E8.72103
G1 X85.603 Y171.392 E.12384
G1 X27.781 Y113.571 E8.54589
