; generated by PrusaSlicer 2.7.2 on 2025-04-29 at 18:29:42 UTC


;
;
; 

; external perimeters extrusion width = 1.00mm
; perimeters extrusion width = 1.00mm
; infill extrusion width = 0.90mm
; solid infill extrusion width = 0.90mm
; top infill extrusion width = 0.80mm
; support material extrusion width = 0.70mm
; first layer extrusion width = 0.90mm

M73 P0 R250
M73 Q0 S252
M201 X1000 Y1000 Z200 E5000 ; sets maximum accelerations, mm/sec^2
M203 X200 Y200 Z12 E120 ; sets maximum feedrates, mm / sec
M204 S1250 T1250 ; sets acceleration (S) and retract acceleration (R), mm/sec^2
M205 X8.00 Y8.00 Z0.40 E4.50 ; sets the jerk limits, mm/sec
M205 S0 T0 ; sets the minimum extruding and travel feed rate, mm/sec

; printing object Slice002.0 id:1 copy 0
; stop printing object Slice002.0 id:1 copy 0

;TYPE:Custom
M862.3 P "MK3S" ; printer model check
M862.1 P0.8 ; nozzle diameter check
M115 U3.13.3 ; tell printer latest fw version
G90 ; use absolute coordinates
M83 ; extruder relative mode
M104 S230 ; set extruder temp
M140 S60 ; set bed temp
M190 S60 ; wait for bed temp
M109 S230 ; wait for extruder temp
G28 W ; home all without mesh bed level
G80 X18.7801 Y18.4774 W227.996 H180.773 ; mesh bed levelling

G1 Z0.2 F720
G1 Y-3 F1000 ; go outside print area
G92 E0
G1 X60 E9 F1000 ; intro line
G1 X100 E12.5 F1000 ; intro line

G92 E0
M221 S95
G21 ; set units to millimeters
G90 ; use absolute coordinates
M83 ; use relative distances for extrusion

M900 K0.01 ; Filament gcode LA 1.5
; ; Filament gcode LA 1.0




M107
;LAYER_CHANGE
;Z:0.3
;HEIGHT:0.3
G1 E-.7 F2100
G1 Z.55 F720
G1 X23.528 Y31.83 F10800
G1 Z.3 F720
G1 E.7 F1200
M204 S800
;TYPE:Skirt/Brim
;WIDTH:0.9
G1 X38.827 Y20.622 E1.97661
G1 X39.779 Y20.064 E.11501
G1 X41.578 Y19.337 E.20223
G1 X43.362 Y18.964 E.18995
G1 X45.167 Y18.902 E.18823
G1 X241.931 Y29.199 E20.53541
G1 X243.789 Y29.692 E.20035
M73 P0 R249
G1 X245.291 Y30.893 E.20043
G1 X246.183 Y32.596 E.20037
G1 X246.358 Y33.864 E.13341
G1 X246.358 Y183.864 E15.63346
G1 X245.962 Y185.745 E.20034
G1 X245.101 Y187.052 E.16312
G1 X237.176 Y195.537 E1.21007
G1 X236.009 Y196.59 E.16382
G1 X235.293 Y197.106 E.09198
G1 X233.542 Y198.036 E.20664
G1 X231.839 Y198.579 E.1863
G1 X230.288 Y198.81 E.16343
G1 X71.697 Y198.832 E16.52884
G1 X69.688 Y198.579 E.21104
G1 X67.986 Y198.036 E.1862
G1 X66.234 Y197.106 E.20673
G1 X65.518 Y196.59 E.09198
G1 X64.082 Y195.221 E.20678
G1 X63.403 Y194.351 E.11502
G1 X62.426 Y192.625 E.20671
G1 X59.713 Y185.239 E.82008
G1 X19.818 Y55.745 E14.12225
G1 X19.323 Y53.752 E.21403
M73 Q0 S251
G1 X19.198 Y52.212 E.16103
G1 X19.219 Y39.89 E1.28424
G1 X19.323 Y38.791 E.11505
G1 X19.798 Y36.865 E.20675
G1 X20.124 Y36.045 E.09197
G1 X21.101 Y34.319 E.20671
G1 X22.386 Y32.807 E.20681
G1 X23.437 Y31.908 E.14414
M204 S1000
G1 X23.437 Y31.908 F10800
G1 X23.98 Y32.54
M204 S800
G1 F1200
G1 X24.023 Y32.503 E.00591
G1 X39.25 Y21.343 E1.9676
G1 X40.201 Y20.785 E.11492
G1 X41.858 Y20.125 E.18589
G1 X43.444 Y19.796 E.16882
G1 X45.124 Y19.736 E.17521
G1 X241.887 Y30.033 E20.5353
G1 X243.559 Y30.516 E.18139
G1 X244.846 Y31.688 E.18142
G1 X245.522 Y33.864 E.23748
G1 X245.522 Y183.864 E15.63346
G1 X245.128 Y185.559 E.18137
G1 X244.49 Y186.482 E.11694
G1 X236.565 Y194.967 E1.21007
G1 X235.459 Y195.961 E.15498
G1 X234.871 Y196.385 E.07555
G1 X233.262 Y197.248 E.19029
G1 X231.686 Y197.758 E.17264
G1 X230.206 Y197.978 E.15595
G1 X71.697 Y197.997 E16.52029
G1 X69.842 Y197.758 E.19493
G1 X68.265 Y197.248 E.17274
G1 X66.656 Y196.385 E.19029
G1 X66.068 Y195.961 E.07555
G1 X64.741 Y194.707 E.19029
G1 X64.062 Y193.837 E.11502
G1 X63.17 Y192.244 E.19028
G1 X60.511 Y184.993 E.80493
G1 X20.617 Y55.499 E14.12222
G1 X20.155 Y53.673 E.19631
M73 P0 R248
G1 X20.033 Y52.212 E.1528
G1 X20.051 Y39.969 E1.276
G1 X20.155 Y38.87 E.11505
G1 X20.6 Y37.099 E.19032
G1 X20.868 Y36.426 E.0755
G1 X21.76 Y34.833 E.19028
G1 X22.936 Y33.436 E.19032
G1 X23.889 Y32.618 E.1309
M204 S1000
; printing object Slice002.0 id:1 copy 0
;WIPE_START
G1 F8640
G1 X23.98 Y32.54 E-.02767
G1 X24.023 Y32.503 E-.0131
G1 X26.326 Y30.815 E-.65923
;WIPE_END
G1 Z.55 F720
G1 X234.44 Y185.199 F10800
G1 Z.3 F720
G1 E.7 F1200
M204 S800
;TYPE:Support material
G1 X234.943 Y186.181 E.11499
G1 X235.252 Y187.24 E.11497
G1 X235.356 Y188.339 E.11505
G1 X235.252 Y189.437 E.11495
G1 X234.943 Y190.496 E.11497
G1 X234.44 Y191.479 E.11509
G1 X233.762 Y192.349 E.11496
G1 X232.932 Y193.076 E.115
G1 X231.98 Y193.633 E.11496
G1 X230.981 Y193.988 E.1105
G1 X230.301 Y194.115 E.0721
G1 X229.197 Y194.161 E.11516
G1 X228.046 Y193.988 E.12131
G1 X227.047 Y193.633 E.1105
G1 X226.095 Y193.076 E.11496
G1 X225.265 Y192.349 E.115
G1 X224.587 Y191.479 E.11496
G1 X224.084 Y190.496 E.11509
G1 X223.775 Y189.437 E.11497
G1 X223.671 Y188.339 E.11495
G1 X223.775 Y187.24 E.11505
G1 X224.084 Y186.181 E.11497
G1 X224.653 Y185.114 E.12603
G1 X234.357 Y185.114 E1.01138
M204 S1000
G1 X234.357 Y185.114 F10800
G1 X234.497 Y190.542
M204 S800
G1 F1200
G1 X234.497 Y187.339 E.33383
G1 X234.241 Y186.46 E.09542
G1 X233.937 Y185.866 E.06955
G1 X233.569 Y185.866 E.03835
G1 X233.569 Y191.373 E.57396
G1 X233.213 Y191.83 E.06038
G1 X232.64 Y192.331 E.07933
G1 X232.64 Y185.866 E.6738
G1 X231.712 Y185.866 E.09672
G1 X231.712 Y192.919 E.73509
G1 X230.783 Y193.259 E.1031
G1 X230.783 Y185.866 E.77052
G1 X229.855 Y185.866 E.09672
G1 X229.855 Y193.403 E.78553
G1 X228.926 Y193.379 E.09686
G1 X228.926 Y185.866 E.78303
G1 X227.998 Y185.866 E.09672
G1 X227.998 Y193.173 E.76156
G1 X227.366 Y192.948 E.06992
G1 X227.069 Y192.775 E.03582
G1 X227.069 Y185.866 E.72008
G1 X226.141 Y185.866 E.09672
G1 X226.141 Y192.116 E.65139
G1 X225.814 Y191.83 E.04528
G1 X225.213 Y191.05 E.10263
G1 X225.213 Y185.49 E.57948
M204 S1000
;WIPE_START
G1 F8640
G1 X225.213 Y188.522 E-.7
;WIPE_END
G1 Z.55 F720
G1 X76.94 Y185.199 F10800
G1 Z.3 F720
G1 E.7 F1200
M204 S800
G1 X77.443 Y186.181 E.11499
G1 X77.752 Y187.24 E.11497
G1 X77.856 Y188.339 E.11505
G1 X77.752 Y189.437 E.11495
G1 X77.443 Y190.496 E.11497
G1 X76.94 Y191.479 E.11509
G1 X76.262 Y192.349 E.11496
G1 X75.432 Y193.076 E.115
G1 X74.48 Y193.633 E.11496
G1 X73.481 Y193.988 E.1105
G1 X72.801 Y194.115 E.0721
G1 X71.697 Y194.161 E.11516
G1 X70.546 Y193.988 E.12131
G1 X69.547 Y193.633 E.1105
G1 X68.595 Y193.076 E.11496
G1 X67.765 Y192.349 E.115
G1 X67.087 Y191.479 E.11496
G1 X66.584 Y190.496 E.11509
G1 X66.275 Y189.437 E.11497
G1 X66.171 Y188.339 E.11495
G1 X66.275 Y187.24 E.11505
G1 X66.584 Y186.181 E.11497
G1 X67.153 Y185.114 E.12603
G1 X76.856 Y185.114 E1.01128
M204 S1000
G1 X76.856 Y185.114 F10800
G1 X76.658 Y191.205
M204 S800
G1 F1200
G1 X76.658 Y186.298 E.51142
G1 X76.437 Y185.866 E.05057
G1 X75.73 Y185.866 E.07369
G1 X75.73 Y191.808 E.61929
G1 X74.801 Y192.573 E.12543
G1 X74.801 Y185.866 E.69902
G1 X73.873 Y185.866 E.09672
G1 X73.873 Y193.051 E.74884
G1 X72.944 Y193.323 E.10089
G1 X72.944 Y185.866 E.77719
G1 X72.016 Y185.866 E.09672
G1 X72.016 Y193.409 E.78615
G1 X71.087 Y193.324 E.09723
G1 X71.087 Y185.866 E.7773
G1 X70.159 Y185.866 E.09672
G1 X70.159 Y193.052 E.74895
G1 X69.23 Y192.576 E.10879
G1 X69.23 Y185.866 E.69934
G1 X68.302 Y185.866 E.09672
G1 X68.302 Y191.814 E.61992
G1 X67.724 Y191.072 E.09803
G1 X67.373 Y190.388 E.08013
G1 X67.373 Y185.49 E.51048
M204 S1000
;WIPE_START
G1 F8640
G1 X67.373 Y188.521 E-.7
;WIPE_END
G1 Z.55 F720
G1 X49.598 Y60.199 F10800
G1 Z.3 F720
G1 E.7 F1200
M204 S800
G1 X50.1 Y61.181 E.11494
G1 X50.409 Y62.24 E.11497
G1 X50.514 Y63.339 E.11506
G1 X50.409 Y64.437 E.11496
G1 X50.1 Y65.496 E.11497
G1 X49.598 Y66.479 E.11504
G1 X48.919 Y67.349 E.11502
G1 X48.089 Y68.075 E.11493
G1 X47.138 Y68.633 E.11492
G1 X46.138 Y68.988 E.1106
G1 X45.458 Y69.115 E.0721
G1 X44.355 Y69.161 E.11506
G1 X43.204 Y68.988 E.12131
G1 X42.204 Y68.633 E.1106
G1 X41.253 Y68.076 E.11487
G1 X40.423 Y67.349 E.115
G1 X39.744 Y66.479 E.11502
M73 Q0 S250
G1 X39.242 Y65.496 E.11504
G1 X38.933 Y64.437 E.11497
G1 X38.828 Y63.339 E.11496
G1 X38.933 Y62.24 E.11506
G1 X39.242 Y61.181 E.11497
G1 X39.811 Y60.114 E.12603
G1 X49.514 Y60.114 E1.01128
M204 S1000
G1 X49.514 Y60.114 F10800
G1 X49.732 Y65.39
M204 S800
G1 F1200
G1 X49.732 Y63.067 E.24211
G1 X49.668 Y62.382 E.0717
G1 X49.398 Y61.46 E.10013
G1 X49.094 Y60.866 E.06955
G1 X48.804 Y60.866 E.03022
G1 X48.804 Y66.274 E.56364
G1 X48.37 Y66.83 E.07351
G1 X47.876 Y67.263 E.06846
G1 X47.876 Y60.866 E.66671
G1 X46.947 Y60.866 E.09682
G1 X46.947 Y67.873 E.73029
G1 X46.019 Y68.232 E.1037
G1 X46.019 Y60.866 E.76771
G1 X45.09 Y60.866 E.09682
G1 X45.09 Y68.395 E.7847
G1 X44.162 Y68.386 E.09672
G1 X44.162 Y60.866 E.78376
G1 X43.233 Y60.866 E.09682
G1 X43.233 Y68.2 E.76437
G1 X42.523 Y67.948 E.07852
G1 X42.305 Y67.82 E.02635
G1 X42.305 Y60.866 E.72477
G1 X41.376 Y60.866 E.09682
G1 X41.376 Y67.184 E.65848
G1 X40.972 Y66.83 E.05598
G1 X40.448 Y66.158 E.08881
G1 X40.448 Y60.49 E.59074
M204 S1000
;WIPE_START
G1 F8640
G1 X40.448 Y63.521 E-.7
;WIPE_END
G1 Z.55 F720
G1 X30.499 Y34.555 F10800
G1 Z.3 F720
G1 E.7 F1200
M204 S800
G1 X31.179 Y34.682 E.0721
G1 X32.178 Y35.037 E.1105
G1 X32.937 Y35.481 E.09165
G1 X32.937 Y45.181 E1.01096
G1 X32.178 Y45.626 E.0917
G1 X30.357 Y46.272 E.20138
G1 X32.178 Y46.918 E.20138
G1 X32.937 Y47.362 E.09165
G1 X32.937 Y57.062 E1.01096
G1 X32.178 Y57.506 E.09165
G1 X31.179 Y57.861 E.1105
G1 X30.028 Y58.034 E.12131
G1 X29.396 Y58.034 E.06587
G1 X28.245 Y57.861 E.12131
G1 X27.245 Y57.506 E.1106
G1 X26.293 Y56.949 E.11496
G1 X25.464 Y56.222 E.11492
G1 X24.785 Y55.352 E.11502
G1 X24.282 Y54.37 E.11499
G1 X23.973 Y53.31 E.11507
G1 X23.869 Y52.212 E.11495
G1 X23.973 Y51.114 E.11495
G1 X24.282 Y50.054 E.11507
G1 X24.785 Y49.072 E.11499
G1 X25.464 Y48.202 E.11502
G1 X26.293 Y47.475 E.11492
G1 X27.245 Y46.918 E.11496
G1 X29.067 Y46.272 E.20148
G1 X27.245 Y45.626 E.20148
G1 X26.293 Y45.068 E.11501
G1 X25.464 Y44.341 E.11492
G1 X24.785 Y43.471 E.11502
G1 X24.282 Y42.489 E.11499
G1 X23.973 Y41.43 E.11497
G1 X23.869 Y40.331 E.11505
G1 X23.973 Y39.233 E.11495
G1 X24.282 Y38.174 E.11497
G1 X24.785 Y37.191 E.11509
G1 X25.464 Y36.321 E.11502
G1 X26.293 Y35.594 E.11492
G1 X27.245 Y35.037 E.11496
G1 X28.245 Y34.682 E.1106
G1 X28.925 Y34.555 E.0721
G1 X30.374 Y34.543 E.15102
M204 S1000
G1 X30.374 Y34.543 F10800
G1 X32.092 Y57.121
M204 S800
G1 F1200
G1 X32.092 Y47.738 E.97792
G1 X31.163 Y47.355 E.10473
G1 X31.163 Y57.069 E1.01242
G1 X30.983 Y57.132 E.01988
G1 X30.235 Y57.258 E.07906
G1 X30.235 Y47.026 E1.06641
G1 X29.712 Y46.841 E.05782
G1 X29.306 Y46.985 E.0449
G1 X29.306 Y57.27 E1.07193
G1 X28.378 Y57.11 E.09815
G1 X28.378 Y47.314 E1.02097
G1 X27.449 Y47.67 E.10369
G1 X27.449 Y56.754 E.94676
G1 X26.521 Y56.148 E.11551
G1 X26.521 Y48.276 E.82044
G1 X26.013 Y48.721 E.07039
G1 X25.592 Y49.26 E.07128
G1 X25.592 Y55.164 E.61533
G1 X24.984 Y54.091 E.12854
G1 X24.715 Y53.168 E.1002
G1 X24.664 Y50.134 E.31626
M204 S1000
G1 X24.664 Y50.134 F10800
G1 X32.092 Y45.241
M204 S800
G1 F1200
G1 X32.092 Y35.858 E.97792
G1 X31.163 Y35.475 E.10473
G1 X31.163 Y45.188 E1.01232
G1 X30.235 Y45.517 E.10262
G1 X30.235 Y35.285 E1.06641
G1 X29.306 Y35.273 E.09683
G1 X29.306 Y45.559 E1.07204
G1 X28.378 Y45.229 E.10265
G1 X28.378 Y35.433 E1.02097
G1 X27.449 Y35.789 E.10369
G1 X27.449 Y44.874 E.94687
G1 X26.521 Y44.267 E.11557
G1 X26.521 Y36.395 E.82044
G1 X26.013 Y36.84 E.07039
G1 X25.592 Y37.379 E.07128
G1 X25.592 Y43.283 E.61533
G1 X24.984 Y42.21 E.12854
G1 X24.715 Y41.288 E.1001
G1 X24.664 Y38.253 E.31636
M204 S1000
;WIPE_START
G1 F8640
G1 X24.715 Y41.284 E-.7
;WIPE_END
G1 Z.55 F720
G1 X45.394 Y23.613 F10800
G1 Z.3 F720
G1 E.7 F1200
M204 S800
G1 X46.074 Y23.74 E.0721
G1 X47.074 Y24.094 E.11056
G1 X48.025 Y24.652 E.11492
G1 X48.855 Y25.379 E.115
G1 X49.534 Y26.249 E.11502
G1 X50.036 Y27.231 E.11494
G1 X50.345 Y28.29 E.11497
G1 X50.45 Y29.389 E.11506
G1 X50.345 Y30.487 E.11496
G1 X50.036 Y31.546 E.11497
G1 X49.534 Y32.529 E.11504
G1 X49.467 Y32.614 E.01128
G1 X39.747 Y32.614 E1.01305
G1 X39.178 Y31.546 E.12612
G1 X38.869 Y30.487 E.11497
G1 X38.764 Y29.389 E.11496
G1 X38.869 Y28.29 E.11506
G1 X39.178 Y27.231 E.11497
G1 X39.68 Y26.249 E.11494
G1 X40.359 Y25.379 E.11502
G1 X41.189 Y24.652 E.115
G1 X42.14 Y24.094 E.11492
G1 X43.14 Y23.74 E.11056
G1 X43.82 Y23.613 E.0721
G1 X45.27 Y23.601 E.15113
M204 S1000
G1 X45.27 Y23.601 F10800
G1 X48.804 Y32.238
M204 S800
G1 F1200
G1 X48.804 Y26.536 E.59428
G1 X48.306 Y25.898 E.08435
G1 X47.876 Y25.521 E.0596
G1 X47.876 Y31.862 E.66088
G1 X46.947 Y31.862 E.09682
G1 X46.947 Y24.892 E.72643
G1 X46.019 Y24.518 E.10428
G1 X46.019 Y31.862 E.76541
G1 X45.09 Y31.862 E.09682
G1 X45.09 Y24.339 E.78407
G1 X44.886 Y24.318 E.02137
G1 X44.162 Y24.335 E.07548
G1 X44.162 Y31.862 E.78449
G1 X43.233 Y31.862 E.09682
G1 X43.233 Y24.505 E.76677
G1 X42.305 Y24.87 E.10393
G1 X42.305 Y31.862 E.72873
G1 X41.376 Y31.862 E.09682
G1 X41.376 Y25.487 E.66442
G1 X40.908 Y25.898 E.06492
G1 X40.448 Y26.488 E.07797
G1 X40.448 Y32.238 E.59928
M204 S1000
;WIPE_START
G1 F8640
G1 X40.448 Y29.206 E-.7
;WIPE_END
G1 Z.55 F720
G1 X64.542 Y57.401 F10800
G1 Z.3 F720
G1 E.7 F1200
M204 S800
;TYPE:Perimeter
;WIDTH:0.899999
G1 X64.409 Y57.378 E.01407
G1 X35.672 Y57.378 E2.99506
G1 X35.672 Y35.349 E2.29593
G1 X240.201 Y35.349 E21.31663
G1 X240.201 Y135.378 E10.42532
M73 P0 R247
G1 X138.955 Y135.378 E10.55216
G1 X138.675 Y135.41 E.02937
G1 X138.29 Y135.569 E.04341
G1 X137.975 Y135.85 E.04399
G1 X137.771 Y136.218 E.04385
G1 X137.701 Y136.632 E.04376
G1 X137.701 Y159.096 E2.34127
G1 X137.755 Y159.459 E.03825
G1 X137.933 Y159.822 E.04214
G1 X138.222 Y160.113 E.04274
G1 X138.56 Y160.286 E.03957
G1 X138.955 Y160.349 E.04169
G1 X240.201 Y160.349 E10.55216
G1 X240.201 Y171.364 E1.14802
M73 P1 R247
M73 Q1 S250
G1 X240.201 Y182.378 E1.14791
G1 X65.662 Y182.378 E18.19098
G1 X65.662 Y58.632 E12.89718
M73 Q1 S249
G1 X65.607 Y58.263 E.03888
G1 X65.438 Y57.917 E.04013
G1 X65.171 Y57.636 E.0404
G1 X64.823 Y57.449 E.04117
G1 X64.661 Y57.421 E.01713
M204 S1000
G1 X64.661 Y57.421 F10800
G1 X64.409 Y58.214
M204 S800
;TYPE:External perimeter
G1 F1200
G1 X34.837 Y58.214 E3.08208
G1 X34.837 Y34.514 E2.47009
G1 X241.037 Y34.514 E21.49078
G1 X241.037 Y136.214 E10.59948
G1 X138.955 Y136.214 E10.63929
G1 X138.799 Y136.244 E.01656
G1 X138.609 Y136.397 E.02542
G1 X138.537 Y136.632 E.02562
G1 X138.537 Y159.096 E2.34127
G1 X138.574 Y159.268 E.01834
M73 P1 R246
G1 X138.731 Y159.449 E.02497
G1 X138.955 Y159.514 E.02431
G1 X241.037 Y159.514 E10.63929
G1 X241.037 Y171.364 E1.23504
G1 X241.037 Y183.214 E1.23504
G1 X64.827 Y183.214 E18.36513
G1 X64.827 Y58.632 E12.98431
G1 X64.793 Y58.467 E.01756
G1 X64.643 Y58.285 E.02458
G1 X64.524 Y58.249 E.01296
M204 S1000
;WIPE_START
G1 F8640
G1 X64.409 Y58.214 E-.02776
G1 X61.498 Y58.214 E-.67224
;WIPE_END
G1 Z.55 F720
G1 X225.819 Y61.408 F10800
G1 Z.3 F720
G1 E.7 F1200
M204 S800
;TYPE:Perimeter
G1 X225.43 Y60.812 E.07418
G1 X225.118 Y60.027 E.08804
G1 X224.979 Y59.268 E.08042
G1 X224.956 Y58.949 E.03333
G1 X224.986 Y58.355 E.06199
G1 X225.122 Y57.724 E.06727
G1 X225.255 Y57.301 E.04621
G1 X225.512 Y56.766 E.06186
G1 X226.002 Y56.078 E.08803
G1 X226.618 Y55.502 E.0879
G1 X227.333 Y55.06 E.08761
G1 X228.124 Y54.768 E.08788
G1 X228.956 Y54.639 E.08775
G1 X229.792 Y54.676 E.08722
G1 X230.616 Y54.881 E.0885
G1 X231.377 Y55.244 E.08787
G1 X231.611 Y55.399 E.02925
G1 X232.179 Y55.875 E.07724
G1 X232.731 Y56.551 E.09096
G1 X233.119 Y57.301 E.08801
G1 X233.35 Y58.11 E.08769
G1 X233.418 Y58.949 E.08773
G1 X233.316 Y59.787 E.08798
G1 X233.052 Y60.586 E.0877
G1 X232.633 Y61.319 E.088
G1 X232.08 Y61.952 E.0876
G1 X231.409 Y62.464 E.08797
G1 X230.652 Y62.833 E.08777
M73 Q1 S248
G1 X229.837 Y63.045 E.08777
G1 X228.995 Y63.091 E.08789
G1 X228.161 Y62.969 E.08785
G1 X227.974 Y62.921 E.02012
G1 X227.368 Y62.684 E.06782
G1 X227.12 Y62.553 E.02923
G1 X226.507 Y62.136 E.07727
G1 X225.89 Y61.516 E.09116
G1 X225.885 Y61.508 E.00098
M204 S1000
G1 X225.885 Y61.508 F10800
G1 X226.512 Y60.957
M204 S800
;TYPE:External perimeter
G1 F1200
G1 X226.503 Y60.948 E.00133
G1 X226.143 Y60.376 E.07044
G1 X225.904 Y59.742 E.07062
G1 X225.805 Y59.143 E.06328
G1 X225.833 Y58.316 E.08624
G1 X225.98 Y57.741 E.06186
G1 X226.265 Y57.128 E.07046
