; generated by PrusaSlicer 2.7.2 on 2025-04-29 at 18:29:27 UTC


;
;
; 

; external perimeters extrusion width = 1.00mm
; perimeters extrusion width = 1.00mm
; infill extrusion width = 0.90mm
; solid infill extrusion width = 0.90mm
; top infill extrusion width = 0.80mm
; support material extrusion width = 0.70mm
; first layer extrusion width = 0.90mm

M73 P0 R282
M73 Q0 S285
M201 X1000 Y1000 Z200 E5000 ; sets maximum accelerations, mm/sec^2
M203 X200 Y200 Z12 E120 ; sets maximum feedrates, mm / sec
M204 S1250 T1250 ; sets acceleration (S) and retract acceleration (R), mm/sec^2
M205 X8.00 Y8.00 Z0.40 E4.50 ; sets the jerk limits, mm/sec
M205 S0 T0 ; sets the minimum extruding and travel feed rate, mm/sec

; printing object Slice001.0 id:5 copy 0
; stop printing object Slice001.0 id:5 copy 0

;TYPE:Custom
M862.3 P "MK3S" ; printer model check
M862.1 P0.8 ; nozzle diameter check
M115 U3.13.3 ; tell printer latest fw version
G90 ; use absolute coordinates
M83 ; extruder relative mode
M104 S230 ; set extruder temp
M140 S60 ; set bed temp
M190 S60 ; wait for bed temp
M109 S230 ; wait for extruder temp
G28 W ; home all without mesh bed level
G80 X19.8457 Y14.944 W227.823 H180.565 ; mesh bed levelling

G1 Z0.2 F720
G1 Y-3 F1000 ; go outside print area
G92 E0
G1 X60 E9 F1000 ; intro line
G1 X100 E12.5 F1000 ; intro line

G92 E0
M221 S95
G21 ; set units to millimeters
G90 ; use absolute coordinates
M83 ; use relative distances for extrusion

M900 K0.01 ; Filament gcode LA 1.5
; ; Filament gcode LA 1.0




M107
;LAYER_CHANGE
;Z:0.3
;HEIGHT:0.3
G1 E-.7 F2100
G1 Z.55 F720
G1 X62.108 Y25.049 F10800
G1 Z.3 F720
G1 E.7 F1200
M204 S800
;TYPE:Skirt/Brim
;WIDTH:0.9
G1 X63.348 Y21.973 E.34566
G1 X64.001 Y20.643 E.15442
G1 X65.143 Y19.023 E.20658
G1 X66.57 Y17.646 E.20668
G1 X68.23 Y16.561 E.20669
G1 X69.028 Y16.184 E.09198
G1 X70.921 Y15.587 E.20687
G1 X72.706 Y15.362 E.18751
G1 X231.033 Y15.362 E16.50132
G1 X232.819 Y15.588 E.18763
M73 Q0 S284
G1 X234.712 Y16.184 E.20684
G1 X236.457 Y17.126 E.20668
G1 X237.994 Y18.378 E.20661
G1 X245.998 Y26.939 E1.22148
G1 X246.991 Y28.585 E.20035
G1 X247.251 Y30.123 E.16257
G1 X247.251 Y180.123 E15.63346
G1 X246.855 Y182.004 E.20034
M73 P0 R281
G1 X245.735 Y183.567 E.20041
G1 X244.081 Y184.546 E.20032
G1 X242.854 Y184.786 E.13031
G1 X67.67 Y195.083 E18.28973
G1 X66.685 Y195.091 E.10266
G1 X45.083 Y194.725 E2.25175
G1 X43.391 Y194.505 E.17783
G1 X42.534 Y194.286 E.09219
G1 X40.695 Y193.537 E.20695
G1 X39.326 Y192.696 E.16745
G1 X24.594 Y181.688 E1.91671
G1 X23.488 Y180.742 E.15168
G1 X22.879 Y180.1 E.09223
G1 X22.197 Y179.229 E.1153
G1 X21.215 Y177.502 E.20706
G1 X20.887 Y176.681 E.09214
G1 X20.408 Y174.752 E.20715
G1 X20.281 Y173.213 E.16094
G1 X20.264 Y161.433 E1.22775
G1 X20.388 Y159.888 E.16154
G1 X20.554 Y159.019 E.09221
G1 X60.615 Y28.749 E14.20463
G1 X62.063 Y25.16 E.40335
M204 S1000
G1 X62.063 Y25.16 F10800
G1 X62.836 Y25.473
M204 S800
G1 F1200
G1 X64.122 Y22.287 E.35808
G1 X64.747 Y21.019 E.14734
G1 X65.805 Y19.532 E.1902
G1 X67.124 Y18.271 E.19019
G1 X68.657 Y17.279 E.19031
G1 X69.312 Y16.969 E.07553
G1 X71.052 Y16.413 E.19038
G1 X72.706 Y16.197 E.17385
G1 X231.033 Y16.198 E16.50132
G1 X232.687 Y16.413 E.17384
G1 X234.427 Y16.97 E.19041
G1 X236.03 Y17.844 E.19029
G1 X237.439 Y19.003 E.19015
G1 X245.386 Y27.508 E1.21316
G1 X246.253 Y29.017 E.18138
G1 X246.416 Y30.123 E.11652
G1 X246.416 Y180.123 E15.63346
G1 X246.021 Y181.818 E.18139
G1 X244.918 Y183.164 E.18137
G1 X242.805 Y183.952 E.23504
G1 X66.699 Y194.255 E18.38569
G1 X45.097 Y193.889 E2.25175
M73 Q0 S283
G1 X43.52 Y193.68 E.1658
G1 X42.816 Y193.5 E.07573
G1 X41.12 Y192.818 E.19052
G1 X39.827 Y192.027 E.15798
G1 X25.095 Y181.018 E1.91677
G1 X23.537 Y179.585 E.22062
G1 X22.855 Y178.714 E.1153
G1 X21.958 Y177.119 E.19072
G1 X21.689 Y176.445 E.07563
G1 X21.24 Y174.672 E.19062
G1 X21.117 Y173.211 E.15281
G1 X21.099 Y161.432 E1.22764
G1 X21.22 Y159.966 E.15331
G1 X21.356 Y159.253 E.07565
G1 X61.414 Y28.995 E14.20335
G1 X62.791 Y25.584 E.38338
M204 S1000
; printing object Slice001.0 id:5 copy 0
;WIPE_START
G1 F8640
G1 X62.836 Y25.473 E-.02766
G1 X63.926 Y22.773 E-.67234
;WIPE_END
G1 Z.55 F720
G1 X72.007 Y181.458 F10800
G1 Z.3 F720
M73 P0 R280
G1 E.7 F1200
M204 S800
;TYPE:Support material
G1 X72.509 Y182.44 E.11494
G1 X72.818 Y183.499 E.11497
G1 X72.923 Y184.598 E.11506
G1 X72.818 Y185.696 E.11496
G1 X72.509 Y186.755 E.11497
G1 X72.007 Y187.738 E.11504
G1 X71.328 Y188.608 E.11502
G1 X70.498 Y189.335 E.115
G1 X69.546 Y189.892 E.11496
G1 X68.547 Y190.247 E.1105
G1 X67.867 Y190.374 E.0721
G1 X66.764 Y190.42 E.11506
G1 X65.613 Y190.247 E.12131
G1 X64.613 Y189.892 E.1106
G1 X63.662 Y189.335 E.11487
G1 X62.832 Y188.608 E.115
G1 X62.153 Y187.738 E.11502
G1 X61.651 Y186.755 E.11504
G1 X61.342 Y185.696 E.11497
G1 X61.237 Y184.598 E.11496
G1 X61.342 Y183.499 E.11506
G1 X61.651 Y182.44 E.11497
G1 X62.22 Y181.373 E.12603
G1 X71.923 Y181.373 E1.01128
M204 S1000
G1 X71.923 Y181.373 F10800
G1 X71.98 Y186.964
M204 S800
G1 F1200
G1 X71.98 Y183.312 E.38062
G1 X71.807 Y182.719 E.06438
G1 X71.503 Y182.125 E.06955
G1 X71.052 Y182.125 E.047
G1 X71.052 Y187.739 E.58511
G1 X70.779 Y188.089 E.04626
G1 X70.123 Y188.663 E.09085
G1 X70.123 Y182.125 E.68141
G1 X69.195 Y182.125 E.09672
G1 X69.195 Y189.219 E.73936
G1 X68.266 Y189.534 E.10224
G1 X68.266 Y182.125 E.77219
G1 X67.338 Y182.125 E.09672
G1 X67.338 Y189.668 E.78615
G1 X66.41 Y189.63 E.0968
G1 X66.41 Y182.125 E.78219
G1 X65.481 Y182.125 E.09682
G1 X65.481 Y189.402 E.75843
G1 X64.932 Y189.207 E.06072
G1 X64.553 Y188.985 E.04578
G1 X64.553 Y182.125 E.71497
G1 X63.624 Y182.125 E.09682
G1 X63.624 Y188.302 E.64379
G1 X63.381 Y188.089 E.03368
G1 X62.696 Y187.147 E.12139
G1 X62.696 Y181.749 E.5626
M204 S1000
;WIPE_START
G1 F8640
G1 X62.696 Y184.781 E-.7
;WIPE_END
G1 Z.55 F720
G1 X50.98 Y182.049 F10800
G1 Z.3 F720
G1 E.7 F1200
M204 S800
G1 X51.294 Y183.107 E.11502
G1 X51.403 Y184.204 E.1149
G1 X51.305 Y185.303 E.115
G1 X51.001 Y186.363 E.11493
G1 X50.504 Y187.346 E.1148
G1 X49.831 Y188.219 E.11488
G1 X49.007 Y188.949 E.11473
G1 X48.059 Y189.512 E.11491
G1 X47.023 Y189.887 E.11483
G1 X45.975 Y190.053 E.11059
G1 X45.162 Y190.054 E.08473
G1 X44.113 Y189.89 E.11066
G1 X43.073 Y189.517 E.11515
G1 X42.123 Y188.954 E.11509
G1 X41.295 Y188.224 E.11505
G1 X40.62 Y187.35 E.11509
G1 X40.122 Y186.366 E.11494
G1 X39.818 Y185.305 E.11503
G1 X39.718 Y184.205 E.11512
G1 X39.828 Y183.107 E.11501
G1 X40.142 Y182.048 E.11512
G1 X40.492 Y181.373 E.07925
G1 X50.63 Y181.373 E1.05661
G1 X50.922 Y181.938 E.06629
M204 S1000
G1 X50.922 Y181.938 F10800
G1 X50.626 Y186.272
M204 S800
G1 F1200
G1 X50.626 Y183.984 E.23846
G1 X50.553 Y183.252 E.07667
G1 X50.172 Y182.125 E.12399
G1 X49.697 Y182.125 E.04951
G1 X49.697 Y187.161 E.52487
G1 X49.279 Y187.703 E.07134
G1 X48.769 Y188.155 E.07103
G1 X48.769 Y182.125 E.62847
G1 X47.84 Y182.125 E.09682
G1 X47.84 Y188.767 E.69225
G1 X46.912 Y189.127 E.10374
G1 X46.912 Y182.125 E.72977
G1 X45.983 Y182.125 E.09682
G1 X45.983 Y189.29 E.74676
G1 X45.055 Y189.276 E.09673
G1 X45.055 Y182.125 E.7453
G1 X44.126 Y182.125 E.09682
G1 X44.126 Y189.096 E.72654
G1 X43.394 Y188.833 E.08107
G1 X43.198 Y188.717 E.02374
G1 X43.198 Y182.125 E.68704
G1 X42.269 Y182.125 E.09682
G1 X42.269 Y188.081 E.62075
G1 X41.847 Y187.707 E.05877
G1 X41.341 Y187.053 E.08618
G1 X41.341 Y181.749 E.5528
M204 S1000
;WIPE_START
G1 F8640
G1 X41.341 Y184.781 E-.7
;WIPE_END
G1 Z.55 F720
G1 X31.188 Y155.6 F10800
G1 Z.3 F720
G1 E.7 F1200
M204 S800
G1 X32.229 Y155.764 E.10983
G1 X33.263 Y156.136 E.11453
G1 X33.83 Y156.47 E.06859
G1 X33.83 Y166.372 E1.03202
G1 X33.253 Y166.711 E.06975
G1 X31.588 Y167.306 E.18428
G1 X33.281 Y167.914 E.18748
G1 X33.83 Y168.238 E.06644
G1 X33.83 Y178.16 E1.0341
G1 X33.267 Y178.491 E.06807
G1 X32.231 Y178.86 E.11462
G1 X31.193 Y179.021 E.10948
G1 X30.505 Y179.022 E.07171
G1 X29.349 Y178.853 E.12176
G1 X28.347 Y178.502 E.11065
G1 X27.391 Y177.946 E.11526
G1 X26.556 Y177.219 E.11539
G1 X25.875 Y176.349 E.11515
G1 X25.369 Y175.366 E.11523
G1 X25.058 Y174.305 E.11523
G1 X24.952 Y173.206 E.11507
G1 X25.056 Y172.106 E.11516
G1 X25.364 Y171.045 E.11515
G1 X25.867 Y170.061 E.11518
G1 X26.547 Y169.189 E.11525
G1 X27.379 Y168.461 E.11522
G1 X28.334 Y167.902 E.11533
G1 X29.1 Y167.631 E.08468
G1 X29.1 Y166.994 E.06639
G1 X28.329 Y166.724 E.08514
G1 X27.373 Y166.168 E.11526
G1 X26.538 Y165.441 E.11539
G1 X25.856 Y164.57 E.1153
G1 X25.351 Y163.586 E.11527
G1 X25.04 Y162.526 E.11513
G1 X24.935 Y161.426 E.11517
G1 X25.038 Y160.326 E.11515
G1 X25.347 Y159.265 E.11517
G1 X25.851 Y158.281 E.11523
G1 X26.531 Y157.409 E.11525
G1 X27.364 Y156.681 E.1153
G1 X28.319 Y156.123 E.11528
G1 X29.324 Y155.769 E.11105
G1 X30.021 Y155.64 E.07388
G1 X31.063 Y155.6 E.10868
M204 S1000
G1 X31.063 Y155.6 F10800
G1 X32.985 Y178.192
M204 S800
G1 F1200
G1 X32.985 Y168.612 E.99846
G1 X32.056 Y168.273 E.10307
G1 X32.056 Y178.124 E1.0267
G1 X31.128 Y178.269 E.09789
G1 X31.128 Y167.54 E1.11821
M204 S1000
G1 X31.128 Y167.54 F10800
G1 X32.985 Y166.408
M204 S800
G1 F1200
G1 X32.985 Y156.845 E.99669
G1 X32.056 Y156.501 E.10325
G1 X32.056 Y166.34 E1.02545
G1 X31.128 Y166.671 E.10269
G1 X31.128 Y156.352 E1.07548
G1 X30.199 Y156.379 E.09686
G1 X30.199 Y178.239 E2.27832
G1 X29.271 Y178.029 E.09916
G1 X29.271 Y168.369 E1.00679
G1 X28.342 Y168.768 E.10538
G1 X28.342 Y177.63 E.92362
G1 X27.831 Y177.332 E.06165
G1 X27.414 Y176.969 E.05762
G1 X27.414 Y169.43 E.78574
G1 X27.096 Y169.708 E.04402
G1 X26.486 Y170.504 E.10452
G1 X26.486 Y176.519 E.6269
M204 S1000
G1 X26.486 Y176.519 F10800
G1 X29.271 Y166.655
M204 S800
G1 F1200
G1 X29.271 Y156.585 E1.04953
G1 X28.342 Y156.98 E.10521
G1 X28.342 Y165.862 E.92571
G1 X27.813 Y165.553 E.06385
G1 X27.414 Y165.206 E.05511
G1 X27.414 Y157.636 E.78897
G1 X27.08 Y157.928 E.04624
G1 X26.486 Y158.692 E.10086
G1 X26.486 Y164.763 E.63274
M204 S1000
;WIPE_START
G1 F8640
G1 X26.486 Y161.731 E-.7
;WIPE_END
G1 Z.55 F720
G1 X48.028 Y145.029 F10800
G1 Z.3 F720
G1 E.7 F1200
M204 S800
G1 X48.741 Y145.163 E.07561
G1 X49.745 Y145.522 E.11113
G1 X50.695 Y146.084 E.11504
G1 X51.523 Y146.814 E.11505
G1 X52.198 Y147.687 E.11501
G1 X52.697 Y148.671 E.11499
G1 X53.002 Y149.732 E.11506
G1 X53.102 Y150.831 E.11501
G1 X52.993 Y151.93 E.1151
G1 X52.68 Y152.988 E.11499
G1 X52.222 Y153.873 E.10386
G1 X42.297 Y153.873 E1.03441
G1 X41.839 Y152.987 E.10395
G1 X41.526 Y151.929 E.11499
G1 X41.417 Y150.832 E.1149
G1 X41.516 Y149.733 E.115
G1 X41.821 Y148.673 E.11496
G1 X42.319 Y147.69 E.11485
G1 X42.993 Y146.818 E.11487
G1 X43.818 Y146.088 E.11481
G1 X44.766 Y145.526 E.11486
G1 X45.803 Y145.152 E.11489
G1 X46.85 Y144.987 E.11047
G1 X47.903 Y145.017 E.10979
M204 S1000
G1 X47.903 Y145.017 F10800
G1 X51.554 Y153.497
M204 S800
G1 F1200
G1 X51.554 Y148.084 E.56416
G1 X50.971 Y147.331 E.09925
G1 X50.626 Y147.026 E.04799
G1 X50.626 Y153.121 E.63524
G1 X49.697 Y153.121 E.09682
G1 X49.697 Y146.368 E.70382
G1 X49.424 Y146.206 E.03309
G1 X48.769 Y145.971 E.07253
G1 X48.769 Y153.121 E.74519
G1 X47.84 Y153.121 E.09682
G1 X47.84 Y145.767 E.76646
G1 X46.912 Y145.739 E.09676
G1 X46.912 Y153.121 E.76937
G1 X45.983 Y153.121 E.09682
G1 X45.983 Y145.887 E.75395
G1 X45.055 Y146.229 E.10308
G1 X45.055 Y153.121 E.71831
G1 X44.126 Y153.121 E.09682
G1 X44.126 Y146.819 E.65681
G1 X43.544 Y147.334 E.081
G1 X43.198 Y147.782 E.059
G1 X43.198 Y153.121 E.55645
G1 X42.754 Y153.121 E.04628
G1 X42.54 Y152.705 E.04876
G1 X42.269 Y151.793 E.09916
G1 X42.269 Y148.62 E.3307
M204 S1000
;WIPE_START
G1 F8640
G1 X42.269 Y151.652 E-.7
;WIPE_END
G1 Z.55 F720
G1 X138.83 Y58.393 F10800
G1 Z.3 F720
G1 E.7 F1200
M204 S800
G1 X138.526 Y58.527 E.03463
G1 X137.493 Y58.743 E.10999
G1 X136.473 Y58.741 E.10631
G1 X135.607 Y58.579 E.09182
G1 X134.613 Y58.187 E.11136
G1 X133.701 Y57.571 E.1147
G1 X132.93 Y56.756 E.11693
G1 X132.354 Y55.753 E.12055
G1 X132.036 Y54.794 E.1053
G1 X131.922 Y53.709 E.1137
G1 X132.046 Y52.622 E.11403
G1 X132.532 Y51.373 E.13968
G1 X138.83 Y51.373 E.6564
G1 X138.83 Y58.267 E.71851
M204 S1000
G1 X138.83 Y58.267 F10800
G1 X137.901 Y58.273
M204 S800
G1 F1200
G1 X137.901 Y52.125 E.64076
G1 X136.973 Y52.125 E.09672
G1 X136.973 Y57.99 E.61127
G1 X136.045 Y57.896 E.09721
G1 X136.045 Y52.125 E.60147
G1 X135.116 Y52.125 E.09682
G1 X135.116 Y57.577 E.56822
G1 X134.188 Y56.991 E.11439
G1 X134.188 Y52.125 E.50715
G1 X133.259 Y52.125 E.09682
G1 X133.259 Y56.557 E.46192
M204 S1000
;WIPE_START
G1 F8640
G1 X133.259 Y53.525 E-.7
;WIPE_END
G1 Z.55 F720
G1 X148.14 Y20.34 F10800
G1 Z.3 F720
G1 E.7 F1200
M204 S800
G1 X149.205 Y20.523 E.11262
G1 X150.238 Y20.912 E.11504
G1 X151.179 Y21.487 E.11493
G1 X151.994 Y22.228 E.1148
G1 X152.655 Y23.109 E.11479
G1 X153.14 Y24.098 E.1148
G1 X153.43 Y25.162 E.11494
G1 X153.515 Y26.263 E.11509
G1 X153.392 Y27.36 E.11505
G1 X153.065 Y28.417 E.11532
G1 X152.821 Y28.873 E.0539
G1 X142.525 Y28.873 E1.07308
G1 X142.281 Y28.416 E.05399
G1 X141.953 Y27.359 E.11535
G1 X141.831 Y26.261 E.11514
G1 X141.916 Y25.16 E.11509
G1 X142.207 Y24.096 E.11497
G1 X142.692 Y23.107 E.1148
G1 X143.355 Y22.226 E.11492
G1 X144.171 Y21.485 E.11488
G1 X145.112 Y20.91 E.11493
G1 X146.147 Y20.521 E.11524
G1 X147.212 Y20.34 E.11259
G1 X148.015 Y20.34 E.08369
M204 S1000
G1 X148.015 Y20.34 F10800
G1 X152.757 Y28.139
M204 S800
G1 F1200
G1 X152.686 Y25.291 E.29692
G1 X152.433 Y24.365 E.10005
G1 X151.828 Y23.261 E.13121
G1 X151.828 Y28.121 E.50652
G1 X150.9 Y28.121 E.09672
G1 X150.9 Y22.25 E.61189
G1 X149.972 Y21.63 E.11632
G1 X149.972 Y28.121 E.67651
G1 X149.043 Y28.121 E.09682
G1 X149.043 Y21.266 E.71445
G1 X148.115 Y21.099 E.09827
G1 X148.115 Y28.121 E.73185
G1 X147.186 Y28.121 E.09682
G1 X147.186 Y21.107 E.73102
G1 X146.258 Y21.283 E.09844
G1 X146.258 Y28.121 E.71268
G1 X145.329 Y28.121 E.09682
G1 X145.329 Y21.658 E.67359
G1 X144.401 Y22.292 E.11714
G1 X144.401 Y28.121 E.60752
G1 X143.472 Y28.121 E.09682
G1 X143.472 Y22.695 E.56551
M204 S1000
;WIPE_START
G1 F8640
G1 X143.472 Y25.726 E-.7
;WIPE_END
G1 Z.55 F720
G1 X73.533 Y20.033 F10800
G1 Z.3 F720
G1 E.7 F1200
M204 S800
G1 X74.584 Y20.201 E.11093
G1 X75.621 Y20.576 E.11493
G1 X76.569 Y21.14 E.11497
G1 X77.394 Y21.872 E.11495
G1 X78.066 Y22.746 E.1149
G1 X78.562 Y23.731 E.11494
G1 X78.864 Y24.792 E.11497
G1 X78.962 Y25.891 E.115
G1 X78.85 Y26.989 E.11503
G1 X78.534 Y28.047 E.11508
G1 X78.105 Y28.873 E.09701
G1 X68.134 Y28.873 E1.03921
G1 X67.704 Y28.047 E.09705
G1 X67.388 Y26.989 E.11508
G1 X67.276 Y25.891 E.11503
G1 X67.374 Y24.791 E.1151
G1 X67.676 Y23.73 E.11497
G1 X68.172 Y22.746 E.11485
G1 X68.845 Y21.872 E.11497
G1 X69.67 Y21.14 E.11495
G1 X70.618 Y20.576 E.11497
G1 X71.656 Y20.2 E.11506
G1 X72.706 Y20.033 E.11081
G1 X73.408 Y20.033 E.07316
M204 S1000
G1 X73.408 Y20.033 F10800
G1 X77.551 Y28.497
M204 S800
G1 F1200
G1 X77.551 Y23.396 E.53164
G1 X76.841 Y22.387 E.12859
G1 X76.623 Y22.194 E.03035
G1 X76.623 Y28.121 E.61773
G1 X75.694 Y28.121 E.09682
G1 X75.694 Y21.495 E.69058
G1 X75.298 Y21.259 E.04805
G1 X74.766 Y21.066 E.05898
G1 X74.766 Y28.121 E.73529
G1 X73.837 Y28.121 E.09682
M73 Q0 S282
G1 X73.837 Y20.843 E.75854
G1 X72.909 Y20.785 E.09691
G1 X72.909 Y28.121 E.76458
G1 X71.98 Y28.121 E.09682
G1 X71.98 Y20.91 E.75155
G1 X71.052 Y21.219 E.10194
G1 X71.052 Y28.121 E.71935
G1 X70.123 Y28.121 E.09682
G1 X70.123 Y21.745 E.66453
G1 X69.195 Y22.65 E.1351
G1 X69.195 Y28.121 E.5702
G1 X68.59 Y28.121 E.06305
G1 X68.267 Y27.303 E.09166
G1 X68.267 Y23.395 E.4073
M204 S1000
;WIPE_START
G1 F8640
G1 X68.267 Y26.426 E-.7
;WIPE_END
G1 Z.55 F720
G1 X231.033 Y20.033 F10800
G1 Z.3 F720
G1 E.7 F1200
M204 S800
G1 X232.083 Y20.201 E.11083
G1 X233.121 Y20.576 E.11503
G1 X234.069 Y21.14 E.11497
G1 X234.893 Y21.872 E.11487
G1 X235.566 Y22.746 E.11497
G1 X236.062 Y23.731 E.11494
G1 X236.364 Y24.792 E.11497
G1 X236.462 Y25.891 E.115
G1 X236.35 Y26.989 E.11503
G1 X236.034 Y28.047 E.11508
G1 X235.604 Y28.873 E.09705
G1 X225.634 Y28.873 E1.0391
G1 X225.204 Y28.047 E.09705
G1 X224.888 Y26.989 E.11508
G1 X224.776 Y25.891 E.11503
G1 X224.874 Y24.791 E.1151
G1 X225.176 Y23.73 E.11497
G1 X225.672 Y22.746 E.11485
G1 X226.345 Y21.872 E.11497
G1 X227.17 Y21.14 E.11495
