; generated by PrusaSlicer 2.7.2 on 2025-04-29 at 18:30:32 UTC


;
;
; 

; external perimeters extrusion width = 1.00mm
; perimeters extrusion width = 1.00mm
; infill extrusion width = 0.90mm
; solid infill extrusion width = 0.90mm
; top infill extrusion width = 0.80mm
; first layer extrusion width = 0.90mm

M73 P0 R308
M73 Q0 S310
M201 X1000 Y1000 Z200 E5000 ; sets maximum accelerations, mm/sec^2
M203 X200 Y200 Z12 E120 ; sets maximum feedrates, mm / sec
M204 S1250 T1250 ; sets acceleration (S) and retract acceleration (R), mm/sec^2
M205 X8.00 Y8.00 Z0.40 E4.50 ; sets the jerk limits, mm/sec
M205 S0 T0 ; sets the minimum extruding and travel feed rate, mm/sec

; printing object Slice002.1 id:0 copy 0
; stop printing object Slice002.1 id:0 copy 0

;TYPE:Custom
M862.3 P "MK3S" ; printer model check
M862.1 P0.8 ; nozzle diameter check
M115 U3.13.3 ; tell printer latest fw version
G90 ; use absolute coordinates
M83 ; extruder relative mode
M104 S230 ; set extruder temp
M140 S60 ; set bed temp
M190 S60 ; wait for bed temp
M109 S230 ; wait for extruder temp
G28 W ; home all without mesh bed level
G80 X0.13228 Y30.7532 W247.668 H160.178 ; mesh bed levelling

G1 Z0.2 F720
G1 Y-3 F1000 ; go outside print area
G92 E0
G1 X60 E9 F1000 ; intro line
G1 X100 E12.5 F1000 ; intro line
M73 P0 R307

G92 E0
M221 S95
G21 ; set units to millimeters
G90 ; use absolute coordinates
M83 ; use relative distances for extrusion

M900 K0.01 ; Filament gcode LA 1.5
; ; Filament gcode LA 1.0




M107
;LAYER_CHANGE
;Z:0.3
;HEIGHT:0.3
G1 E-.7 F2100
G1 Z.55 F720
G1 X5.145 Y31.184 F10800
G1 Z.3 F720
G1 E.7 F1200
M204 S800
;TYPE:Skirt/Brim
;WIDTH:0.9
G1 X5.221 Y31.171 E.00804
G1 X242.711 Y31.171 E24.75193
G1 X244.593 Y31.567 E.20044
G1 X246.156 Y32.687 E.20041
G1 X247.135 Y34.342 E.20041
G1 X247.383 Y35.842 E.15846
G1 X247.383 Y185.842 E15.63346
G1 X246.987 Y187.724 E.20044
M73 Q0 S309
G1 X245.867 Y189.287 E.20041
G1 X244.212 Y190.266 E.20041
G1 X242.711 Y190.514 E.15856
G1 X5.221 Y190.514 E24.75193
G1 X3.34 Y190.118 E.20034
G1 X1.777 Y188.998 E.20041
G1 X.798 Y187.343 E.20041
G1 X.55 Y185.842 E.15856
G1 X.55 Y35.842 E15.63346
G1 X.946 Y33.961 E.20034
G1 X2.066 Y32.398 E.20041
G1 X3.721 Y31.419 E.20041
G1 X5.027 Y31.203 E.13796
M204 S1000
G1 X5.027 Y31.203 F10800
G1 X5.221 Y32.007
M204 S800
G1 F1200
G1 X242.711 Y32.007 E24.75193
G1 X244.406 Y32.401 E.18137
G1 X245.752 Y33.505 E.18144
G1 X246.547 Y35.842 E.25728
G1 X246.547 Y185.842 E15.63346
G1 X246.152 Y187.537 E.18139
M73 P0 R306
G1 X245.049 Y188.883 E.18137
G1 X242.711 Y189.678 E.25738
G1 X5.221 Y189.678 E24.75193
G1 X3.526 Y189.283 E.18139
G1 X2.18 Y188.18 E.18137
G1 X1.386 Y185.842 E.25734
G1 X1.386 Y35.842 E15.63346
G1 X1.78 Y34.147 E.18137
M73 Q0 S308
G1 X2.884 Y32.801 E.18144
G1 X5.108 Y32.045 E.24482
M204 S1000
; printing object Slice002.1 id:0 copy 0
;WIPE_START
G1 F8640
G1 X5.221 Y32.007 E-.02753
G1 X8.133 Y32.007 E-.67247
;WIPE_END
G1 Z.55 F720
G1 X39.185 Y161.206 F10800
G1 Z.3 F720
G1 E.7 F1200
M204 S800
;TYPE:Perimeter
;WIDTH:0.899999
G1 X39.207 Y161.074 E.01395
G1 X39.207 Y138.61 E2.34127
G1 X39.177 Y138.338 E.02852
G1 X39.014 Y137.941 E.04473
G1 X38.737 Y137.631 E.04333
G1 X38.374 Y137.429 E.0433
G1 X37.954 Y137.357 E.04441
G1 X6.707 Y137.357 E3.25666
G1 X6.707 Y37.328 E10.42532
G1 X241.226 Y37.328 E24.44227
G1 X241.226 Y63.209 E2.6974
G1 X241.226 Y184.357 E12.62641
G1 X6.707 Y184.357 E24.44227
G1 X6.707 Y162.328 E2.29593
M73 P0 R305
G1 X37.954 Y162.328 E3.25666
G1 X38.272 Y162.287 E.03342
G1 X38.625 Y162.133 E.04014
G1 X38.936 Y161.852 E.04368
G1 X39.137 Y161.488 E.04334
G1 X39.164 Y161.325 E.01722
M204 S1000
G1 X39.164 Y161.325 F10800
G1 X38.371 Y161.074
M204 S800
;TYPE:External perimeter
G1 F1200
G1 X38.371 Y138.61 E2.34127
G1 X38.342 Y138.456 E.01633
G1 X38.188 Y138.265 E.02557
G1 X37.954 Y138.192 E.02555
G1 X5.871 Y138.192 E3.34379
G1 X5.871 Y36.492 E10.59948
G1 X242.061 Y36.492 E24.61643
G1 X242.061 Y63.209 E2.78453
M73 Q0 S307
G1 X242.061 Y185.192 E12.71343
G1 X5.871 Y185.192 E24.61643
G1 X5.871 Y161.492 E2.47009
G1 X37.954 Y161.492 E3.34379
G1 X38.133 Y161.452 E.01912
G1 X38.306 Y161.299 E.02407
G1 X38.338 Y161.19 E.01184
M204 S1000
;WIPE_START
G1 F8640
G1 X38.371 Y161.074 E-.02785
G1 X38.371 Y158.163 E-.67215
;WIPE_END
G1 Z.55 F720
G1 X196.689 Y41.904 F10800
G1 Z.3 F720
G1 E.7 F1200
M204 S800
;TYPE:Perimeter
G1 X196.885 Y42.589 E.07426
G1 X196.952 Y43.427 E.08762
G1 X196.851 Y44.265 E.08797
G1 X196.587 Y45.064 E.0877
G1 X196.168 Y45.797 E.088
G1 X195.615 Y46.43 E.0876
G1 X194.944 Y46.943 E.08803
G1 X194.187 Y47.312 E.08777
G1 X193.371 Y47.523 E.08784
G1 X192.529 Y47.569 E.08789
G1 X191.696 Y47.447 E.08774
G1 X190.808 Y47.121 E.09859
G1 X190.159 Y46.694 E.08097
G1 X189.828 Y46.43 E.04413
G1 X189.425 Y45.995 E.0618
G1 X188.965 Y45.291 E.08765
G1 X188.653 Y44.506 E.08804
G1 X188.503 Y43.679 E.0876
G1 X188.521 Y42.834 E.08809
G1 X188.704 Y42.013 E.08767
G1 X189.046 Y41.244 E.08772
G1 X189.536 Y40.556 E.08803
G1 X190.152 Y39.981 E.08782
G1 X190.868 Y39.539 E.0877
G1 X191.658 Y39.247 E.08778
G1 X192.491 Y39.117 E.08787
G1 X193.333 Y39.155 E.08785
G1 X194.151 Y39.36 E.08789
G1 X194.912 Y39.722 E.08783
G1 X195.713 Y40.353 E.10627
G1 X196.265 Y41.03 E.09104
G1 X196.653 Y41.779 E.08792
G1 X196.656 Y41.789 E.00109
M204 S1000
G1 X195.895 Y42.13 F10800
M204 S800
;TYPE:External perimeter
G1 F1200
G1 X195.9 Y42.141 E.00126
G1 X196.075 Y42.795 E.07056
G1 X196.118 Y43.47 E.07049
G1 X196.025 Y44.14 E.0705
G1 X195.801 Y44.779 E.07057
G1 X195.455 Y45.361 E.07057
G1 X195.002 Y45.862 E.0704
G1 X194.456 Y46.264 E.07067
G1 X193.843 Y46.55 E.0705
G1 X193.185 Y46.709 E.07055
G1 X192.508 Y46.734 E.07061
G1 X191.841 Y46.625 E.07044
G1 X191.176 Y46.371 E.07419
G1 X190.441 Y45.862 E.09318
G1 X190.038 Y45.427 E.0618
G1 X189.678 Y44.854 E.07053
G1 X189.438 Y44.22 E.07065
G1 X189.329 Y43.554 E.07034
G1 X189.355 Y42.876 E.07072
G1 X189.514 Y42.219 E.07045
G1 X189.8 Y41.606 E.0705
G1 X190.202 Y41.061 E.07058
G1 X190.705 Y40.607 E.07062
G1 X191.286 Y40.262 E.07042
G1 X191.924 Y40.039 E.07044
G1 X192.595 Y39.946 E.0706
G1 X193.271 Y39.989 E.0706
G1 X193.924 Y40.164 E.07046
G1 X194.531 Y40.466 E.07066
G1 X195.176 Y40.994 E.08688
G1 X195.599 Y41.535 E.07157
G1 X195.841 Y42.023 E.05677
M204 S1000
;WIPE_START
G1 F8640
G1 X195.895 Y42.13 E-.02767
G1 X195.9 Y42.141 E-.00279
G1 X196.075 Y42.795 E-.15632
G1 X196.118 Y43.47 E-.15618
G1 X196.025 Y44.14 E-.15619
G1 X195.801 Y44.779 E-.15635
G1 X195.703 Y44.945 E-.0445
;WIPE_END
G1 Z.55 F720
G1 X171.81 Y44.389 F10800
G1 Z.3 F720
G1 E.7 F1200
M204 S800
;TYPE:Perimeter
G1 X171.587 Y45.064 E.07409
G1 X171.168 Y45.797 E.088
G1 X170.615 Y46.43 E.0876
G1 X170.059 Y46.86 E.07326
G1 X169.758 Y47.054 E.03732
G1 X169.187 Y47.312 E.0653
G1 X168.371 Y47.523 E.08784
G1 X167.529 Y47.569 E.08789
G1 X166.696 Y47.447 E.08774
G1 X165.903 Y47.163 E.08779
G1 X165.159 Y46.694 E.09166
G1 X164.828 Y46.43 E.04413
G1 X164.425 Y45.995 E.0618
G1 X163.965 Y45.291 E.08765
G1 X163.653 Y44.506 E.08804
G1 X163.503 Y43.679 E.0876
G1 X163.521 Y42.834 E.08809
G1 X163.704 Y42.013 E.08767
G1 X164.046 Y41.244 E.08772
G1 X164.536 Y40.556 E.08803
G1 X165.152 Y39.981 E.08782
G1 X165.868 Y39.539 E.0877
G1 X166.658 Y39.247 E.08778
G1 X167.491 Y39.117 E.08787
G1 X168.333 Y39.155 E.08785
G1 X169.151 Y39.36 E.08789
G1 X170.062 Y39.82 E.10636
G1 X170.736 Y40.373 E.09086
G1 X171.265 Y41.03 E.08791
G1 X171.653 Y41.779 E.08792
G1 X171.885 Y42.589 E.08782
G1 X171.952 Y43.427 E.08762
G1 X171.851 Y44.265 E.08797
G1 X171.848 Y44.275 E.00109
M204 S1000
G1 X171.848 Y44.275 F10800
G1 X171.026 Y44.128
M204 S800
;TYPE:External perimeter
G1 F1200
G1 X171.025 Y44.14 E.00126
G1 X170.801 Y44.779 E.07057
G1 X170.455 Y45.361 E.07057
G1 X170.002 Y45.862 E.0704
G1 X169.394 Y46.301 E.07816
G1 X168.843 Y46.55 E.06302
G1 X168.185 Y46.709 E.07055
G1 X167.508 Y46.734 E.07061
G1 X166.841 Y46.625 E.07044
G1 X166.208 Y46.385 E.07056
G1 X165.441 Y45.862 E.09675
G1 X165.038 Y45.427 E.0618
G1 X164.678 Y44.854 E.07053
G1 X164.438 Y44.22 E.07065
G1 X164.329 Y43.554 E.07034
G1 X164.355 Y42.876 E.07072
G1 X164.514 Y42.219 E.07045
G1 X164.8 Y41.606 E.0705
G1 X165.202 Y41.061 E.07058
G1 X165.705 Y40.607 E.07062
G1 X166.286 Y40.262 E.07042
G1 X166.924 Y40.039 E.07044
G1 X167.595 Y39.946 E.0706
G1 X168.271 Y39.989 E.0706
G1 X168.925 Y40.164 E.07056
G1 X169.662 Y40.554 E.0869
G1 X170.184 Y41 E.07156
G1 X170.599 Y41.535 E.07057
G1 X170.9 Y42.141 E.07052
G1 X171.075 Y42.795 E.07056
G1 X171.118 Y43.47 E.07049
G1 X171.043 Y44.009 E.05672
M204 S1000
;WIPE_START
G1 F8640
G1 X171.026 Y44.128 E-.02776
G1 X171.025 Y44.14 E-.00278
G1 X170.801 Y44.779 E-.15635
G1 X170.455 Y45.361 E-.15634
G1 X170.002 Y45.862 E-.15596
G1 X169.394 Y46.301 E-.17316
G1 X169.285 Y46.35 E-.02765
;WIPE_END
G1 Z.55 F720
G1 X138.917 Y45.169 F10800
G1 Z.3 F720
G1 E.7 F1200
M204 S800
;TYPE:Perimeter
G1 X138.653 Y44.506 E.07438
G1 X138.503 Y43.679 E.0876
G1 X138.521 Y42.834 E.08809
G1 X138.704 Y42.013 E.08767
G1 X139.046 Y41.244 E.08772
G1 X139.536 Y40.556 E.08803
G1 X140.152 Y39.981 E.08782
G1 X140.868 Y39.539 E.0877
G1 X141.095 Y39.436 E.02598
G1 X141.658 Y39.247 E.0619
G1 X142.491 Y39.117 E.08787
G1 X143.333 Y39.155 E.08785
G1 X144.151 Y39.36 E.08789
G1 X145.062 Y39.82 E.10636
G1 X145.736 Y40.373 E.09086
G1 X146.265 Y41.03 E.08791
G1 X146.653 Y41.779 E.08792
G1 X146.885 Y42.589 E.08782
G1 X146.952 Y43.427 E.08762
G1 X146.851 Y44.265 E.08797
G1 X146.587 Y45.064 E.0877
G1 X146.168 Y45.797 E.088
G1 X145.615 Y46.43 E.0876
G1 X145.059 Y46.86 E.07326
G1 X144.728 Y47.067 E.04069
G1 X144.187 Y47.312 E.0619
G1 X143.371 Y47.523 E.08784
G1 X142.529 Y47.569 E.08789
G1 X141.696 Y47.447 E.08774
G1 X141.427 Y47.368 E.02922
G1 X140.74 Y47.079 E.07768
G1 X140.016 Y46.596 E.09071
G1 X139.425 Y45.995 E.08785
G1 X138.965 Y45.291 E.08765
G1 X138.961 Y45.28 E.00122
M204 S1000
G1 X138.961 Y45.28 F10800
G1 X139.684 Y44.865
M204 S800
;TYPE:External perimeter
G1 F1200
G1 X139.678 Y44.854 E.00131
G1 X139.438 Y44.22 E.07065
G1 X139.329 Y43.554 E.07034
G1 X139.355 Y42.876 E.07072
G1 X139.514 Y42.219 E.07045
G1 X139.8 Y41.606 E.0705
G1 X140.202 Y41.061 E.07058
G1 X140.705 Y40.607 E.07062
G1 X141.362 Y40.228 E.07905
G1 X141.924 Y40.039 E.0618
G1 X142.595 Y39.946 E.0706
G1 X143.271 Y39.989 E.0706
G1 X143.925 Y40.164 E.07056
G1 X144.662 Y40.554 E.0869
G1 X145.184 Y41 E.07156
G1 X145.599 Y41.535 E.07057
G1 X145.9 Y42.141 E.07052
G1 X146.075 Y42.795 E.07056
G1 X146.118 Y43.47 E.07049
G1 X146.025 Y44.14 E.0705
G1 X145.801 Y44.779 E.07057
G1 X145.455 Y45.361 E.07057
G1 X145.002 Y45.862 E.0704
G1 X144.384 Y46.306 E.07931
G1 X143.84 Y46.552 E.06222
G1 X143.185 Y46.709 E.0702
G1 X142.508 Y46.734 E.07061
G1 X141.841 Y46.625 E.07044
G1 X141.068 Y46.31 E.087
G1 X140.504 Y45.917 E.07164
G1 X140.038 Y45.427 E.07048
G1 X139.748 Y44.967 E.05667
M204 S1000
;WIPE_START
G1 F8640
G1 X139.684 Y44.865 E-.0278
G1 X139.678 Y44.854 E-.00289
G1 X139.438 Y44.22 E-.15653
G1 X139.329 Y43.554 E-.15583
G1 X139.355 Y42.876 E-.15667
G1 X139.514 Y42.219 E-.15608
G1 X139.595 Y42.046 E-.0442
;WIPE_END
G1 Z.55 F720
G1 X114.939 Y46.511 F10800
G1 Z.3 F720
G1 E.7 F1200
M204 S800
;TYPE:Perimeter
G1 X114.425 Y45.995 E.07591
G1 X113.965 Y45.291 E.08765
G1 X113.653 Y44.506 E.08804
G1 X113.503 Y43.679 E.0876
G1 X113.521 Y42.834 E.08809
G1 X113.704 Y42.013 E.08767
G1 X114.046 Y41.244 E.08772
G1 X114.536 Y40.556 E.08803
G1 X115.152 Y39.981 E.08782
G1 X115.868 Y39.539 E.0877
G1 X116.658 Y39.247 E.08778
G1 X117.491 Y39.117 E.08787
G1 X118.333 Y39.155 E.08785
G1 X119.151 Y39.36 E.08789
G1 X119.912 Y39.722 E.08783
G1 X120.713 Y40.353 E.10627
G1 X121.265 Y41.03 E.09104
G1 X121.653 Y41.779 E.08792
G1 X121.885 Y42.589 E.08782
G1 X121.952 Y43.427 E.08762
M73 P0 R304
G1 X121.851 Y44.265 E.08797
G1 X121.587 Y45.064 E.0877
G1 X121.168 Y45.797 E.088
G1 X120.615 Y46.43 E.0876
G1 X119.944 Y46.943 E.08803
G1 X119.187 Y47.312 E.08777
G1 X118.371 Y47.523 E.08784
G1 X118.2 Y47.55 E.01804
G1 X117.529 Y47.569 E.06996
G1 X116.765 Y47.46 E.08043
G1 X116.456 Y47.38 E.03327
G1 X115.903 Y47.163 E.06191
G1 X115.595 Y46.991 E.03677
G1 X115.042 Y46.614 E.06975
G1 X115.024 Y46.596 E.00265
M204 S1000
G1 X115.024 Y46.596 F10800
G1 X115.488 Y45.899
M204 S800
;TYPE:External perimeter
G1 F1200
G1 X115.038 Y45.427 E.06797
G1 X114.678 Y44.854 E.07053
G1 X114.438 Y44.22 E.07065
G1 X114.329 Y43.554 E.07034
G1 X114.355 Y42.876 E.07072
G1 X114.514 Y42.219 E.07045
G1 X114.8 Y41.606 E.0705
G1 X115.202 Y41.061 E.07058
G1 X115.705 Y40.607 E.07062
G1 X116.286 Y40.262 E.07042
G1 X116.924 Y40.039 E.07044
G1 X117.595 Y39.946 E.0706
G1 X118.271 Y39.989 E.0706
G1 X118.924 Y40.164 E.07046
G1 X119.531 Y40.466 E.07066
G1 X120.176 Y40.994 E.08688
G1 X120.599 Y41.535 E.07157
G1 X120.9 Y42.141 E.07052
G1 X121.075 Y42.795 E.07056
G1 X121.118 Y43.47 E.07049
G1 X121.025 Y44.14 E.0705
G1 X120.801 Y44.779 E.07057
G1 X120.455 Y45.361 E.07057
G1 X120.002 Y45.862 E.0704
G1 X119.456 Y46.264 E.07067
G1 X118.843 Y46.55 E.0705
G1 X118.128 Y46.718 E.07655
G1 X117.508 Y46.734 E.06464
G1 X116.91 Y46.637 E.06314
G1 X116.314 Y46.427 E.06586
G1 X116.065 Y46.301 E.02908
G1 X115.583 Y45.972 E.06082
M204 S1000
;WIPE_START
G1 F8640
G1 X115.488 Y45.899 E-.02766
G1 X115.038 Y45.427 E-.15058
G1 X114.678 Y44.854 E-.15625
G1 X114.438 Y44.22 E-.15653
G1 X114.329 Y43.554 E-.15583
G1 X114.338 Y43.324 E-.05315
M73 Q1 S307
;WIPE_END
G1 Z.55 F720
G1 X96.81 Y44.389 F10800
M73 P1 R304
G1 Z.3 F720
G1 E.7 F1200
M204 S800
;TYPE:Perimeter
G1 X96.587 Y45.064 E.07409
G1 X96.168 Y45.797 E.088
G1 X95.615 Y46.43 E.0876
G1 X94.944 Y46.943 E.08803
G1 X94.187 Y47.312 E.08777
G1 X93.371 Y47.523 E.08784
G1 X92.529 Y47.569 E.08789
G1 X91.696 Y47.447 E.08774
G1 X91.432 Y47.37 E.02866
G1 X90.744 Y47.08 E.07782
G1 X90.016 Y46.596 E.09111
G1 X89.425 Y45.995 E.08785
G1 X88.965 Y45.291 E.08765
G1 X88.653 Y44.506 E.08804
G1 X88.503 Y43.679 E.0876
G1 X88.521 Y42.834 E.08809
G1 X88.704 Y42.013 E.08767
G1 X89.046 Y41.244 E.08772
G1 X89.536 Y40.556 E.08803
G1 X90.152 Y39.981 E.08782
G1 X90.868 Y39.539 E.0877
G1 X91.658 Y39.247 E.08778
G1 X92.491 Y39.117 E.08787
G1 X93.333 Y39.155 E.08785
G1 X94.151 Y39.36 E.08789
G1 X94.912 Y39.722 E.08783
G1 X95.713 Y40.353 E.10627
G1 X96.265 Y41.03 E.09104
G1 X96.653 Y41.779 E.08792
G1 X96.885 Y42.589 E.08782
G1 X96.952 Y43.427 E.08762
G1 X96.851 Y44.265 E.08797
G1 X96.848 Y44.275 E.00109
M204 S1000
G1 X96.848 Y44.275 F10800
G1 X96.026 Y44.128
M204 S800
;TYPE:External perimeter
G1 F1200
G1 X96.025 Y44.14 E.00126
G1 X95.801 Y44.779 E.07057
G1 X95.455 Y45.361 E.07057
G1 X95.002 Y45.862 E.0704
G1 X94.456 Y46.264 E.07067
G1 X93.843 Y46.55 E.0705
G1 X93.185 Y46.709 E.07055
G1 X92.508 Y46.734 E.07061
G1 X91.753 Y46.599 E.07994
G1 X91.068 Y46.31 E.07749
G1 X90.504 Y45.917 E.07164
G1 X90.038 Y45.427 E.07048
G1 X89.678 Y44.854 E.07053
G1 X89.438 Y44.22 E.07065
G1 X89.329 Y43.554 E.07034
G1 X89.355 Y42.876 E.07072
G1 X89.514 Y42.219 E.07045
G1 X89.8 Y41.606 E.0705
G1 X90.202 Y41.061 E.07058
G1 X90.705 Y40.607 E.07062
G1 X91.286 Y40.262 E.07042
G1 X91.924 Y40.039 E.07044
G1 X92.595 Y39.946 E.0706
G1 X93.271 Y39.989 E.0706
G1 X93.924 Y40.164 E.07046
G1 X94.531 Y40.466 E.07066
G1 X95.176 Y40.994 E.08688
G1 X95.599 Y41.535 E.07157
G1 X95.9 Y42.141 E.07052
G1 X96.075 Y42.795 E.07056
G1 X96.118 Y43.47 E.07049
G1 X96.043 Y44.009 E.05672
M204 S1000
;WIPE_START
G1 F8640
G1 X96.026 Y44.128 E-.02776
G1 X96.025 Y44.14 E-.00278
G1 X95.801 Y44.779 E-.15635
G1 X95.455 Y45.361 E-.15634
G1 X95.002 Y45.862 E-.15596
G1 X94.456 Y46.264 E-.15656
G1 X94.282 Y46.345 E-.04425
;WIPE_END
G1 Z.55 F720
G1 X94.268 Y56.916 F10800
G1 Z.3 F720
G1 E.7 F1200
M204 S800
;TYPE:Perimeter
G1 X94.912 Y57.222 E.07431
G1 X95.146 Y57.377 E.02925
G1 X95.713 Y57.853 E.07716
G1 X96.265 Y58.53 E.09104
G1 X96.653 Y59.279 E.08792
G1 X96.885 Y60.089 E.08782
G1 X96.946 Y60.813 E.07572
G1 X96.94 Y61.179 E.03815
G1 X96.851 Y61.765 E.06178
G1 X96.587 Y62.564 E.0877
G1 X96.168 Y63.297 E.088
G1 X95.615 Y63.93 E.0876
G1 X94.944 Y64.443 E.08803
G1 X94.187 Y64.812 E.08777
G1 X93.371 Y65.023 E.08784
G1 X92.529 Y65.069 E.08789
G1 X91.696 Y64.947 E.08774
G1 X91.427 Y64.868 E.02922
